;FLAVOR:Marlin
;TIME:9799
;Filament used: 9.52241m
;Layer height: 0.2
;MINX:119
;MINY:115.458
;MINZ:0.2
;MAXX:181
;MAXY:179.958
;MAXZ:54.2
;TARGET_MACHINE.NAME:Creality Ender-3 S1 Plus
;Generated with Cura_SteamEngine 5.9.1
M82 ;absolute extrusion mode
; Ender 3 S1 Plus Start G-code
; M413 S0 ; Disable power loss recovery
G92 E0 ; Reset Extruder

; Prep surfaces before auto home for better accuracy
M140 S75
M104 S215

G28 ; Home all axes
G1 Z10.0 F3000 ; Move Z Axis up little to prevent scratching of Heat Bed
G1 X0 Y0

M190 S75
M109 S215

G1 X0.1 Y20 Z0.3 F5000.0 ; Move to start position
G1 X0.1 Y200.0 Z0.3 F1500.0 E15 ; Draw the first line
G1 X0.4 Y200.0 Z0.3 F5000.0 ; Move to side a little
G1 X0.4 Y20 Z0.3 F1500.0 E30 ; Draw the second line
G92 E0 ; Reset Extruder
G1 Z2.0 F3000 ; Move Z Axis up little to prevent scratching of Heat Bed
G1 X5 Y20 Z0.3 F5000.0 ; Move over to prevent blob squish

G92 E0
G92 E0
G1 F2400 E-0.8
;LAYER_COUNT:271
;LAYER:0
M107
M204 S2000
G0 F7500 X171.496 Y179.845 Z0.2
M204 S500
;TYPE:SKIRT
G1 F2400 E0
G1 F1500 X170.345 Y179.943 E0.03842
G1 X169.67 Y179.958 E0.06088
G1 X130.564 Y179.957 E1.36155
G1 X129.831 Y179.946 E1.38593
G1 X128.859 Y179.889 E1.41831
G1 X127.896 Y179.743 E1.45071
G1 X126.95 Y179.514 E1.48308
G1 X126.026 Y179.202 E1.51552
G1 X125.136 Y178.81 E1.54787
G1 X124.313 Y178.359 E1.57908
G1 X123.474 Y177.798 E1.61265
G1 X122.77 Y177.232 E1.64269
G1 X122.017 Y176.507 E1.67746
G1 X121.38 Y175.771 E1.70983
G1 X120.85 Y175.04 E1.73986
G1 X120.314 Y174.143 E1.77462
G1 X119.892 Y173.265 E1.80702
G1 X119.55 Y172.353 E1.83942
G1 X119.29 Y171.415 E1.87179
G1 X119.112 Y170.446 E1.90456
G1 X119.014 Y169.267 E1.94391
G1 X119 Y168.616 E1.96557
G1 X119.001 Y126.983 E3.35028
G1 X119.012 Y126.283 E3.37357
G1 X119.07 Y125.31 E3.40599
G1 X119.216 Y124.347 E3.43838
G1 X119.446 Y123.401 E3.47076
G1 X119.759 Y122.478 E3.50318
G1 X120.151 Y121.588 E3.53553
G1 X120.621 Y120.735 E3.56792
G1 X121.164 Y119.927 E3.6003
G1 X121.731 Y119.223 E3.63036
G1 X122.456 Y118.471 E3.66511
G1 X123.192 Y117.834 E3.69748
G1 X123.924 Y117.304 E3.72754
G1 X124.821 Y116.769 E3.76228
G1 X125.699 Y116.348 E3.79466
G1 X126.612 Y116.006 E3.82709
G1 X127.549 Y115.747 E3.85942
G1 X128.516 Y115.569 E3.89213
G1 X129.655 Y115.473 E3.93014
G1 X130.312 Y115.458 E3.952
G1 X169.304 Y115.458 E5.24888
G1 X170.184 Y115.471 E5.27815
G1 X171.156 Y115.53 E5.31054
G1 X172.119 Y115.676 E5.34294
G1 X173.066 Y115.907 E5.37536
G1 X173.954 Y116.207 E5.40653
G1 X174.846 Y116.597 E5.43891
G1 X175.729 Y117.084 E5.47245
G1 X176.48 Y117.586 E5.5025
G1 X177.295 Y118.244 E5.53734
G1 X177.993 Y118.922 E5.5697
G1 X178.629 Y119.659 E5.60208
G1 X179.199 Y120.449 E5.63448
G1 X179.661 Y121.225 E5.66452
G1 X180.115 Y122.167 E5.6993
G1 X180.444 Y123.045 E5.73048
G1 X180.713 Y124.017 E5.76403
G1 X180.89 Y124.983 E5.79669
G1 X180.985 Y126.113 E5.83441
G1 X181 Y126.788 E5.85686
G1 X180.999 Y168.358 E7.23949
G1 X180.988 Y169.121 E7.26487
G1 X180.931 Y170.094 E7.29728
G1 X180.786 Y171.057 E7.32967
G1 X180.557 Y172.003 E7.36205
G1 X180.246 Y172.927 E7.39447
G1 X179.854 Y173.818 E7.42685
G1 X179.386 Y174.67 E7.45918
G1 X178.864 Y175.451 E7.49043
G1 X178.231 Y176.236 E7.52397
G1 X177.606 Y176.887 E7.55398
G1 X176.817 Y177.575 E7.5888
G1 X176.057 Y178.125 E7.62
G1 X175.19 Y178.642 E7.65358
G1 X174.312 Y179.064 E7.68598
G1 X173.401 Y179.406 E7.71834
G1 X172.462 Y179.667 E7.75076
G1 X171.496 Y179.845 E7.78343
M204 S2000
G0 F7500 X171.462 Y179.446
M204 S500
G1 F1500 X170.311 Y179.544 E7.82185
G1 X169.67 Y179.558 E7.84317
G1 X130.57 Y179.557 E9.14364
G1 X129.854 Y179.547 E9.16746
G1 X128.918 Y179.493 E9.19864
G1 X127.989 Y179.354 E9.22989
G1 X127.077 Y179.135 E9.26108
G1 X126.187 Y178.836 E9.29231
G1 X125.328 Y178.459 E9.32351
G1 X124.505 Y178.008 E9.35472
G1 X123.725 Y177.486 E9.38594
G1 X123.021 Y176.92 E9.41598
G1 X122.319 Y176.245 E9.44838
G1 X121.704 Y175.536 E9.47959
G1 X121.174 Y174.805 E9.50962
G1 X120.674 Y173.969 E9.54202
G1 X120.266 Y173.124 E9.57323
G1 X119.935 Y172.246 E9.60444
G1 X119.683 Y171.342 E9.63565
G1 X119.511 Y170.413 E9.66708
G1 X119.413 Y169.234 E9.70643
G1 X119.4 Y168.616 E9.72699
G1 X119.401 Y126.989 E11.11151
G1 X119.411 Y126.306 E11.13423
G1 X119.466 Y125.369 E11.16544
G1 X119.605 Y124.441 E11.19665
G1 X119.825 Y123.529 E11.22786
G1 X120.125 Y122.639 E11.25909
G1 X120.502 Y121.78 E11.2903
G1 X120.953 Y120.958 E11.32148
G1 X121.476 Y120.178 E11.35272
G1 X122.043 Y119.474 E11.38278
G1 X122.718 Y118.773 E11.41515
G1 X123.427 Y118.158 E11.44636
G1 X124.159 Y117.628 E11.47642
G1 X124.995 Y117.129 E11.5088
G1 X125.84 Y116.722 E11.54
G1 X126.719 Y116.391 E11.57124
G1 X127.622 Y116.14 E11.60241
G1 X128.55 Y115.968 E11.6338
G1 X129.689 Y115.872 E11.67182
G1 X130.321 Y115.858 E11.69285
G1 X169.298 Y115.858 E12.98923
G1 X170.16 Y115.87 E13.0179
G1 X171.097 Y115.926 E13.04912
G1 X172.025 Y116.065 E13.08033
G1 X172.938 Y116.286 E13.11157
G1 X173.794 Y116.574 E13.14161
G1 X174.686 Y116.964 E13.17399
G1 X175.507 Y117.417 E13.20518
G1 X176.258 Y117.919 E13.23522
G1 X177.017 Y118.531 E13.26765
G1 X177.691 Y119.184 E13.29887
G1 X178.305 Y119.893 E13.33006
G1 X178.855 Y120.654 E13.36129
G1 X179.317 Y121.43 E13.39133
G1 X179.74 Y122.307 E13.42371
G1 X180.069 Y123.185 E13.4549
G1 X180.32 Y124.09 E13.48613
G1 X180.491 Y125.017 E13.51749
G1 X180.586 Y126.147 E13.5552
G1 X180.6 Y126.788 E13.57653
G1 X180.599 Y168.353 E14.95899
G1 X180.589 Y169.098 E14.98377
G1 X180.535 Y170.035 E15.01498
G1 X180.397 Y170.964 E15.04622
G1 X180.178 Y171.876 E15.07742
G1 X179.88 Y172.766 E15.10863
G1 X179.503 Y173.626 E15.13986
G1 X179.053 Y174.448 E15.17103
G1 X178.531 Y175.229 E15.20228
G1 X177.942 Y175.959 E15.23348
G1 X177.317 Y176.61 E15.26349
G1 X176.582 Y177.251 E15.29593
G1 X175.822 Y177.801 E15.32713
G1 X175.016 Y178.282 E15.35835
G1 X174.171 Y178.69 E15.38956
G1 X173.293 Y179.021 E15.42077
G1 X172.389 Y179.274 E15.45199
G1 X171.462 Y179.446 E15.48335
M204 S2000
G0 F7500 X171.428 Y179.047
M204 S500
G1 F1500 X170.277 Y179.145 E15.52177
G1 X169.67 Y179.158 E15.54196
G1 X130.575 Y179.157 E16.84227
G1 X129.877 Y179.148 E16.86548
G1 X128.976 Y179.097 E16.8955
G1 X128.082 Y178.965 E16.92556
G1 X127.204 Y178.756 E16.95558
G1 X126.347 Y178.469 E16.98564
G1 X125.52 Y178.108 E17.01565
G1 X124.727 Y177.675 E17.0457
G1 X123.976 Y177.174 E17.07573
G1 X123.272 Y176.608 E17.10577
G1 X122.621 Y175.982 E17.13581
G1 X122.028 Y175.301 E17.16584
G1 X121.498 Y174.57 E17.19587
G1 X121.034 Y173.795 E17.22592
G1 X120.64 Y172.982 E17.25597
G1 X120.32 Y172.138 E17.28599
G1 X120.076 Y171.268 E17.31604
G1 X119.91 Y170.38 E17.34609
G1 X119.813 Y169.225 E17.38464
G1 X119.8 Y168.616 E17.4049
G1 X119.801 Y126.994 E18.78925
G1 X119.81 Y126.329 E18.81137
G1 X119.862 Y125.427 E18.84142
G1 X119.994 Y124.534 E18.87144
G1 X120.204 Y123.656 E18.90147
G1 X120.491 Y122.799 E18.93153
G1 X120.853 Y121.972 E18.96156
G1 X121.286 Y121.18 E18.99158
G1 X121.788 Y120.429 E19.02162
G1 X122.355 Y119.725 E19.05169
G1 X122.981 Y119.075 E19.0817
G1 X123.662 Y118.482 E19.11174
G1 X124.394 Y117.952 E19.1418
G1 X125.169 Y117.489 E19.17182
G1 X125.982 Y117.096 E19.20186
G1 X126.827 Y116.776 E19.23191
G1 X127.696 Y116.533 E19.26192
G1 X128.584 Y116.367 E19.29197
G1 X129.723 Y116.271 E19.32998
G1 X130.33 Y116.258 E19.35018
G1 X169.293 Y116.258 E20.64609
G1 X170.137 Y116.269 E20.67417
G1 X171.039 Y116.322 E20.70422
G1 X171.932 Y116.454 E20.73424
G1 X172.81 Y116.665 E20.76428
G1 X173.666 Y116.953 E20.79432
G1 X174.493 Y117.315 E20.82434
G1 X175.285 Y117.75 E20.8544
G1 X176.036 Y118.252 E20.88444
G1 X176.739 Y118.819 E20.91448
G1 X177.389 Y119.446 E20.94452
G1 X177.981 Y120.128 E20.97455
G1 X178.511 Y120.859 E21.00459
G1 X178.973 Y121.635 E21.03462
G1 X179.366 Y122.448 E21.06466
G1 X179.684 Y123.293 E21.09469
G1 X179.927 Y124.163 E21.12473
G1 X180.092 Y125.051 E21.15477
G1 X180.187 Y126.181 E21.19249
G1 X180.2 Y126.788 E21.21268
G1 X180.199 Y168.348 E22.59497
G1 X180.19 Y169.075 E22.61915
G1 X180.139 Y169.977 E22.6492
G1 X180.008 Y170.871 E22.67925
G1 X179.799 Y171.749 E22.70927
G1 X179.513 Y172.606 E22.73932
G1 X179.152 Y173.434 E22.76937
G1 X178.72 Y174.226 E22.79937
G1 X178.219 Y174.978 E22.82943
G1 X177.653 Y175.682 E22.85947
G1 X177.028 Y176.333 E22.88949
G1 X176.347 Y176.927 E22.91954
G1 X175.616 Y177.458 E22.94959
G1 X174.842 Y177.922 E22.97961
G1 X174.029 Y178.316 E23.00966
G1 X173.185 Y178.636 E23.03968
G1 X172.315 Y178.881 E23.06974
G1 X171.428 Y179.047 E23.09975
M204 S2000
G1 F2400 E22.29975
;MESH:%5B2_Manfrotto_15.stl
G0 F7500 X169.576 Y169.623
G0 X150 Y168.356
M204 S500
;TYPE:WALL-INNER
G1 F2400 E23.09975
G1 F1500 X169.4 Y168.356 E23.745
G1 X169.4 Y127.056 E25.11864
G1 X130.6 Y127.056 E26.40914
G1 X130.6 Y168.356 E27.78278
G1 X150 Y168.356 E28.42803
M204 S2000
G0 F7500 X150 Y168.756
M204 S500
;TYPE:WALL-OUTER
G1 F1500 X169.8 Y168.756 E29.08658
G1 X169.8 Y126.656 E30.48683
G1 X130.2 Y126.656 E31.80393
G1 X130.2 Y168.756 E33.20418
G1 X150 Y168.756 E33.86273
M204 S2000
G0 F7500 X150 Y167.996
M204 S500
;TYPE:SKIN
G1 F1500 X130.96 Y167.996 E34.49601
G1 X130.96 Y127.416 E35.8457
G1 X169.04 Y127.416 E37.11225
G1 X169.04 Y167.996 E38.46194
G1 X150 Y167.996 E39.09522
M204 S2000
G0 F7500 X150 Y168.256
G0 X130.772 Y168.184
G0 X130.7 Y167.364
G0 X131.16 Y167.364
M204 S500
G1 F1500 X131.593 Y167.796 E39.11556
M204 S2000
G0 F7500 X132.158 Y167.796
M204 S500
G1 F1500 X131.16 Y166.798 E39.1625
M204 S2000
G0 F7500 X131.16 Y166.232
M204 S500
G1 F1500 X132.724 Y167.796 E39.23607
M204 S2000
G0 F7500 X133.29 Y167.796
M204 S500
G1 F1500 X131.16 Y165.667 E39.33623
M204 S2000
G0 F7500 X131.16 Y165.101
M204 S500
G1 F1500 X133.855 Y167.796 E39.463
M204 S2000
G0 F7500 X134.421 Y167.796
M204 S500
G1 F1500 X131.16 Y164.535 E39.61639
M204 S2000
G0 F7500 X131.16 Y163.97
M204 S500
G1 F1500 X134.987 Y167.796 E39.79637
M204 S2000
G0 F7500 X135.552 Y167.796
M204 S500
G1 F1500 X131.16 Y163.404 E40.00296
M204 S2000
G0 F7500 X131.16 Y162.838
M204 S500
G1 F1500 X136.118 Y167.796 E40.23617
M204 S2000
G0 F7500 X136.684 Y167.796
M204 S500
G1 F1500 X131.16 Y162.273 E40.49598
M204 S2000
G0 F7500 X131.16 Y161.707
M204 S500
G1 F1500 X137.249 Y167.796 E40.78238
M204 S2000
G0 F7500 X137.815 Y167.796
M204 S500
G1 F1500 X131.16 Y161.141 E41.09542
M204 S2000
G0 F7500 X131.16 Y160.575
M204 S500
G1 F1500 X138.381 Y167.796 E41.43507
M204 S2000
G0 F7500 X138.946 Y167.796
M204 S500
G1 F1500 X131.16 Y160.01 E41.8013
M204 S2000
G0 F7500 X131.16 Y159.444
M204 S500
G1 F1500 X139.512 Y167.796 E42.19415
M204 S2000
G0 F7500 X140.078 Y167.796
M204 S500
G1 F1500 X131.16 Y158.878 E42.61363
M204 S2000
G0 F7500 X131.16 Y158.313
M204 S500
G1 F1500 X140.644 Y167.796 E43.0597
M204 S2000
G0 F7500 X141.209 Y167.796
M204 S500
G1 F1500 X131.16 Y157.747 E43.53238
M204 S2000
G0 F7500 X131.16 Y157.181
M204 S500
G1 F1500 X141.775 Y167.796 E44.03167
M204 S2000
G0 F7500 X142.341 Y167.796
M204 S500
G1 F1500 X131.16 Y156.616 E44.55757
M204 S2000
G0 F7500 X131.16 Y156.05
M204 S500
G1 F1500 X142.906 Y167.796 E45.11006
M204 S2000
G0 F7500 X143.472 Y167.796
M204 S500
G1 F1500 X131.16 Y155.484 E45.68918
M204 S2000
G0 F7500 X131.16 Y154.919
M204 S500
G1 F1500 X144.038 Y167.796 E46.2949
M204 S2000
G0 F7500 X144.603 Y167.796
M204 S500
G1 F1500 X131.16 Y154.353 E46.92722
M204 S2000
G0 F7500 X131.16 Y153.787
M204 S500
G1 F1500 X145.169 Y167.796 E47.58616
M204 S2000
G0 F7500 X145.735 Y167.796
M204 S500
G1 F1500 X131.16 Y153.222 E48.2717
M204 S2000
G0 F7500 X131.16 Y152.656
M204 S500
G1 F1500 X146.3 Y167.796 E48.98384
M204 S2000
G0 F7500 X146.866 Y167.796
M204 S500
G1 F1500 X131.16 Y152.09 E49.7226
M204 S2000
G0 F7500 X131.16 Y151.524
M204 S500
G1 F1500 X147.432 Y167.796 E50.48799
M204 S2000
G0 F7500 X147.997 Y167.796
M204 S500
G1 F1500 X131.16 Y150.959 E51.27995
M204 S2000
G0 F7500 X131.16 Y150.393
M204 S500
G1 F1500 X148.563 Y167.796 E52.09853
M204 S2000
G0 F7500 X149.129 Y167.796
M204 S500
G1 F1500 X131.16 Y149.827 E52.94374
M204 S2000
G0 F7500 X131.16 Y149.262
M204 S500
G1 F1500 X149.695 Y167.796 E53.81554
M204 S2000
G0 F7500 X150.26 Y167.796
M204 S500
G1 F1500 X131.16 Y148.696 E54.71395
M204 S2000
G0 F7500 X131.16 Y148.13
M204 S500
G1 F1500 X150.826 Y167.796 E55.63898
M204 S2000
G0 F7500 X151.392 Y167.796
M204 S500
G1 F1500 X131.16 Y147.565 E56.5906
M204 S2000
G0 F7500 X131.16 Y146.999
M204 S500
G1 F1500 X151.957 Y167.796 E57.56883
M204 S2000
G0 F7500 X152.523 Y167.796
M204 S500
G1 F1500 X131.16 Y146.433 E58.57368
M204 S2000
G0 F7500 X131.16 Y145.868
M204 S500
G1 F1500 X153.089 Y167.796 E59.60513
M204 S2000
G0 F7500 X153.654 Y167.796
M204 S500
G1 F1500 X131.16 Y145.302 E60.66318
M204 S2000
G0 F7500 X131.16 Y144.736
M204 S500
G1 F1500 X154.22 Y167.796 E61.74785
M204 S2000
G0 F7500 X154.786 Y167.796
M204 S500
G1 F1500 X131.16 Y144.171 E62.85912
M204 S2000
G0 F7500 X131.16 Y143.605
M204 S500
G1 F1500 X155.351 Y167.796 E63.99699
M204 S2000
G0 F7500 X155.917 Y167.796
M204 S500
G1 F1500 X131.16 Y143.039 E65.16149
M204 S2000
G0 F7500 X131.16 Y142.474
M204 S500
G1 F1500 X156.483 Y167.796 E66.35258
M204 S2000
G0 F7500 X157.048 Y167.796
M204 S500
G1 F1500 X131.16 Y141.908 E67.57027
M204 S2000
G0 F7500 X131.16 Y141.342
M204 S500
G1 F1500 X157.614 Y167.796 E68.81459
M204 S2000
G0 F7500 X158.18 Y167.796
M204 S500
G1 F1500 X131.16 Y140.776 E70.08552
M204 S2000
G0 F7500 X131.16 Y140.211
M204 S500
G1 F1500 X158.745 Y167.796 E71.38304
M204 S2000
G0 F7500 X159.311 Y167.796
M204 S500
G1 F1500 X131.16 Y139.645 E72.70717
M204 S2000
G0 F7500 X131.16 Y139.079
M204 S500
G1 F1500 X159.877 Y167.796 E74.05793
M204 S2000
G0 F7500 X160.443 Y167.796
M204 S500
G1 F1500 X131.16 Y138.514 E75.43529
M204 S2000
G0 F7500 X131.16 Y137.948
M204 S500
G1 F1500 X161.008 Y167.796 E76.83925
M204 S2000
G0 F7500 X161.574 Y167.796
M204 S500
G1 F1500 X131.16 Y137.382 E78.26983
M204 S2000
G0 F7500 X131.16 Y136.817
M204 S500
G1 F1500 X162.14 Y167.796 E79.72701
M204 S2000
G0 F7500 X162.705 Y167.796
M204 S500
G1 F1500 X131.16 Y136.251 E81.21079
M204 S2000
G0 F7500 X131.16 Y135.685
M204 S500
G1 F1500 X163.271 Y167.796 E82.7212
M204 S2000
G0 F7500 X163.837 Y167.796
M204 S500
G1 F1500 X131.16 Y135.12 E84.2582
M204 S2000
G0 F7500 X131.16 Y134.554
M204 S500
G1 F1500 X164.402 Y167.796 E85.8218
M204 S2000
G0 F7500 X164.968 Y167.796
M204 S500
G1 F1500 X131.16 Y133.988 E87.41203
M204 S2000
G0 F7500 X131.16 Y133.423
M204 S500
G1 F1500 X165.534 Y167.796 E89.02885
M204 S2000
G0 F7500 X166.099 Y167.796
M204 S500
G1 F1500 X131.16 Y132.857 E90.67227
M204 S2000
G0 F7500 X131.16 Y132.291
M204 S500
G1 F1500 X166.665 Y167.796 E92.34232
M204 S2000
G0 F7500 X167.231 Y167.796
M204 S500
G1 F1500 X131.16 Y131.726 E94.03897
M204 S2000
G0 F7500 X131.16 Y131.16
M204 S500
G1 F1500 X167.796 Y167.796 E95.76221
M204 S2000
G0 F7500 X168.362 Y167.796
M204 S500
G1 F1500 X131.16 Y130.594 E97.51208
M204 S2000
G0 F7500 X131.16 Y130.028
M204 S500
G1 F1500 X168.84 Y167.709 E99.28445
M204 S2000
G0 F7500 X168.84 Y167.143
M204 S500
G1 F1500 X131.16 Y129.463 E101.05681
M204 S2000
G0 F7500 X131.16 Y128.897
M204 S500
G1 F1500 X168.84 Y166.577 E102.82916
M204 S2000
G0 F7500 X168.84 Y166.012
M204 S500
G1 F1500 X131.16 Y128.331 E104.60153
M204 S2000
G0 F7500 X131.16 Y127.766
M204 S500
G1 F1500 X168.84 Y165.446 E106.37388
M204 S2000
G0 F7500 X168.84 Y164.88
M204 S500
G1 F1500 X131.576 Y127.616 E108.12667
M204 S2000
G0 F7500 X132.141 Y127.616
M204 S500
G1 F1500 X168.84 Y164.315 E109.85288
M204 S2000
G0 F7500 X168.84 Y163.749
M204 S500
G1 F1500 X132.707 Y127.616 E111.55246
M204 S2000
G0 F7500 X133.273 Y127.616
M204 S500
G1 F1500 X168.84 Y163.183 E113.22542
M204 S2000
G0 F7500 X168.84 Y162.618
M204 S500
G1 F1500 X133.838 Y127.616 E114.87181
M204 S2000
G0 F7500 X134.404 Y127.616
M204 S500
G1 F1500 X168.84 Y162.052 E116.49158
M204 S2000
G0 F7500 X168.84 Y161.486
M204 S500
G1 F1500 X134.97 Y127.616 E118.08472
M204 S2000
G0 F7500 X135.535 Y127.616
M204 S500
G1 F1500 X168.84 Y160.921 E119.65128
M204 S2000
G0 F7500 X168.84 Y160.355
M204 S500
G1 F1500 X136.101 Y127.616 E121.19122
M204 S2000
G0 F7500 X136.667 Y127.616
M204 S500
G1 F1500 X168.84 Y159.789 E122.70454
M204 S2000
G0 F7500 X168.84 Y159.223
