;FLAVOR:Marlin
;TIME:8700
;Filament used: 6.83604m
;Layer height: 0.2
;MINX:119.001
;MINY:104
;MINZ:0.2
;MAXX:181
;MAXY:195.999
;MAXZ:40
;TARGET_MACHINE.NAME:Creality Ender-3 S1 Plus
;Generated with Cura_SteamEngine 5.9.1
M82 ;absolute extrusion mode
; Ender 3 S1 Plus Start G-code
; M413 S0 ; Disable power loss recovery
G92 E0 ; Reset Extruder

; Prep surfaces before auto home for better accuracy
M140 S75
M104 S215

G28 ; Home all axes
G1 Z10.0 F3000 ; Move Z Axis up little to prevent scratching of Heat Bed
G1 X0 Y0

M190 S75
M109 S215

G1 X0.1 Y20 Z0.3 F5000.0 ; Move to start position
G1 X0.1 Y200.0 Z0.3 F1500.0 E15 ; Draw the first line
G1 X0.4 Y200.0 Z0.3 F5000.0 ; Move to side a little
G1 X0.4 Y20 Z0.3 F1500.0 E30 ; Draw the second line
G92 E0 ; Reset Extruder
G1 Z2.0 F3000 ; Move Z Axis up little to prevent scratching of Heat Bed
G1 X5 Y20 Z0.3 F5000.0 ; Move over to prevent blob squish

G92 E0
G92 E0
G1 F2400 E-0.8
;LAYER_COUNT:200
;LAYER:0
M107
M204 S2000
G0 F7500 X170.899 Y195.827 Z0.2
M204 S500
;TYPE:SKIRT
G1 F2400 E0
G1 F1500 X170.597 Y195.872 E0.01016
G1 X169.345 Y195.985 E0.05197
G1 X168.743 Y195.999 E0.07199
G1 X131.489 Y195.998 E1.31107
G1 X130.576 Y195.979 E1.34144
G1 X129.603 Y195.914 E1.37387
G1 X128.641 Y195.763 E1.40626
G1 X127.698 Y195.527 E1.43859
G1 X126.791 Y195.217 E1.47047
G1 X126.461 Y195.086 E1.48228
G1 X125.575 Y194.687 E1.5146
G1 X124.727 Y194.211 E1.54695
G1 X123.98 Y193.705 E1.57696
G1 X123.75 Y193.535 E1.58647
G1 X122.98 Y192.906 E1.61954
G1 X122.284 Y192.226 E1.6519
G1 X121.687 Y191.533 E1.68232
G1 X121.511 Y191.309 E1.6918
G1 X120.942 Y190.519 E1.72418
G1 X120.464 Y189.713 E1.75535
G1 X120.076 Y188.915 E1.78486
G1 X119.955 Y188.635 E1.79501
G1 X119.608 Y187.723 E1.82746
G1 X119.345 Y186.789 E1.85973
G1 X119.174 Y185.903 E1.88975
G1 X119.129 Y185.602 E1.89987
G1 X119.015 Y184.335 E1.94218
G1 X119.001 Y183.736 E1.96211
G1 X119.002 Y145.643 E3.22909
G1 X119.031 Y143.993 E3.28397
G1 X119.057 Y143.355 E3.30521
G1 X119.18 Y141.814 E3.35663
G1 X119.242 Y141.24 E3.37583
G1 X119.514 Y139.466 E3.43552
G1 X119.646 Y138.783 E3.45866
G1 X119.924 Y137.552 E3.50063
G1 X120.1 Y136.874 E3.52393
G1 X120.495 Y135.541 E3.57017
G1 X120.739 Y134.815 E3.59565
G1 X121.235 Y133.489 E3.64273
G1 X121.506 Y132.833 E3.66634
G1 X122.267 Y131.178 E3.72693
G1 X122.693 Y130.33 E3.75849
G1 X123.786 Y128.073 E3.8419
G1 X124.829 Y125.755 E3.92644
G1 X125.799 Y123.422 E4.01048
G1 X126.691 Y121.1 E4.09321
G1 X127.528 Y118.714 E4.17731
G1 X128.282 Y116.356 E4.25965
G1 X129.354 Y112.546 E4.39129
G1 X129.64 Y111.614 E4.42371
G1 X129.996 Y110.739 E4.45513
G1 X130.607 Y109.577 E4.4988
G1 X131.241 Y108.621 E4.53695
G1 X131.874 Y107.836 E4.57049
G1 X132.525 Y107.159 E4.60173
G1 X133.288 Y106.497 E4.63533
G1 X134.045 Y105.948 E4.66643
G1 X134.789 Y105.494 E4.69542
G1 X135.652 Y105.043 E4.72781
G1 X136.552 Y104.67 E4.76021
G1 X137.481 Y104.379 E4.79259
G1 X138.433 Y104.17 E4.82501
G1 X139.391 Y104.047 E4.85713
G1 X140.161 Y104.01 E4.88277
G1 X140.986 Y104 E4.91021
G1 X159.146 Y104.001 E5.51422
G1 X159.961 Y104.015 E5.54133
G1 X160.933 Y104.075 E5.57372
G1 X161.897 Y104.222 E5.60615
G1 X162.843 Y104.454 E5.63855
G1 X163.731 Y104.756 E5.66974
G1 X164.654 Y105.162 E5.70328
G1 X165.446 Y105.597 E5.73334
G1 X166.312 Y106.18 E5.76806
G1 X167.062 Y106.788 E5.80017
G1 X167.655 Y107.349 E5.82732
G1 X168.336 Y108.078 E5.8605
G1 X168.915 Y108.817 E5.89173
G1 X169.464 Y109.663 E5.92527
G1 X169.92 Y110.524 E5.95768
G1 X170.285 Y111.389 E5.9889
G1 X170.592 Y112.343 E6.02223
G1 X171.23 Y114.679 E6.10278
G1 X171.951 Y117.1 E6.18679
G1 X172.726 Y119.459 E6.26938
G1 X173.592 Y121.863 E6.35437
G1 X174.496 Y124.165 E6.43662
G1 X175.5 Y126.521 E6.5218
G1 X176.536 Y128.774 E6.60428
G1 X178.022 Y131.78 E6.71581
G1 X178.29 Y132.367 E6.73727
G1 X178.82 Y133.628 E6.78277
G1 X179.082 Y134.316 E6.80725
G1 X179.55 Y135.689 E6.8555
G1 X179.765 Y136.4 E6.88021
G1 X180.125 Y137.761 E6.92703
G1 X180.277 Y138.428 E6.94978
G1 X180.518 Y139.646 E6.99108
G1 X180.629 Y140.327 E7.01403
G1 X180.805 Y141.692 E7.0598
G1 X180.873 Y142.418 E7.08406
G1 X180.956 Y143.772 E7.12918
G1 X180.973 Y144.23 E7.14442
G1 X181 Y145.872 E7.19904
G1 X180.998 Y183.475 E8.44972
G1 X180.979 Y184.419 E8.48112
G1 X180.914 Y185.39 E8.51349
G1 X180.764 Y186.353 E8.54591
G1 X180.529 Y187.299 E8.57833
G1 X180.211 Y188.227 E8.61096
G1 X180.081 Y188.552 E8.6226
G1 X179.68 Y189.44 E8.655
G1 X179.221 Y190.257 E8.68617
G1 X178.729 Y190.986 E8.71542
G1 X178.547 Y191.233 E8.72563
G1 X177.933 Y191.99 E8.75805
G1 X177.255 Y192.688 E8.79041
G1 X176.408 Y193.42 E8.82765
G1 X175.543 Y194.042 E8.86308
G1 X174.678 Y194.554 E8.89652
G1 X173.937 Y194.913 E8.9239
G1 X173.672 Y195.029 E8.93352
G1 X172.763 Y195.378 E8.96591
G1 X171.827 Y195.647 E8.9983
G1 X170.899 Y195.827 E9.02974
M204 S2000
G0 F7500 X170.84 Y195.431
M204 S500
G1 F1500 X170.538 Y195.476 E9.0399
G1 X169.336 Y195.585 E9.08004
G1 X168.743 Y195.599 E9.09977
G1 X131.497 Y195.598 E10.33857
G1 X130.602 Y195.58 E10.36835
G1 X129.664 Y195.519 E10.39961
G1 X128.737 Y195.375 E10.43081
G1 X127.827 Y195.149 E10.462
G1 X126.938 Y194.845 E10.49325
G1 X126.625 Y194.721 E10.50445
G1 X125.77 Y194.338 E10.53561
G1 X124.951 Y193.88 E10.56682
G1 X124.218 Y193.383 E10.59627
G1 X123.988 Y193.213 E10.60578
G1 X123.259 Y192.62 E10.63704
G1 X122.587 Y191.965 E10.66825
G1 X122.001 Y191.286 E10.69808
G1 X121.835 Y191.075 E10.70701
G1 X121.286 Y190.314 E10.73822
G1 X120.824 Y189.538 E10.76826
G1 X120.436 Y188.74 E10.79777
G1 X120.329 Y188.492 E10.80676
G1 X119.993 Y187.614 E10.83802
G1 X119.738 Y186.713 E10.86917
G1 X119.57 Y185.844 E10.89861
G1 X119.525 Y185.543 E10.90873
G1 X119.415 Y184.326 E10.94937
G1 X119.401 Y183.736 E10.969
G1 X119.402 Y145.65 E12.23575
G1 X119.431 Y144.009 E12.29033
G1 X119.456 Y143.387 E12.31104
G1 X119.578 Y141.857 E12.36209
G1 X119.64 Y141.283 E12.38129
G1 X119.907 Y139.542 E12.43987
G1 X120.036 Y138.871 E12.4626
G1 X120.311 Y137.653 E12.50413
G1 X120.484 Y136.988 E12.52699
G1 X120.879 Y135.655 E12.57323
G1 X121.114 Y134.955 E12.59779
G1 X121.605 Y133.642 E12.64441
G1 X121.876 Y132.986 E12.66802
G1 X122.624 Y131.358 E12.72761
G1 X123.05 Y130.51 E12.75917
G1 X124.146 Y128.247 E12.8428
G1 X125.194 Y125.919 E12.92771
G1 X126.168 Y123.576 E13.01211
G1 X127.064 Y121.243 E13.09523
G1 X127.909 Y118.836 E13.18008
G1 X128.663 Y116.478 E13.26242
G1 X129.737 Y112.663 E13.39424
G1 X130.011 Y111.765 E13.42546
G1 X130.367 Y110.89 E13.45688
G1 X130.961 Y109.764 E13.49922
G1 X131.574 Y108.843 E13.53602
G1 X132.163 Y108.113 E13.56722
G1 X132.788 Y107.461 E13.59726
G1 X133.523 Y106.821 E13.62967
G1 X134.28 Y106.272 E13.66078
G1 X134.975 Y105.848 E13.68785
G1 X135.806 Y105.412 E13.71907
G1 X136.672 Y105.052 E13.75026
G1 X137.567 Y104.77 E13.78147
G1 X138.484 Y104.567 E13.81271
G1 X139.411 Y104.447 E13.8438
G1 X140.166 Y104.41 E13.86894
G1 X140.986 Y104.4 E13.89621
G1 X159.139 Y104.401 E14.49999
G1 X159.937 Y104.414 E14.52653
G1 X160.873 Y104.471 E14.55772
G1 X161.802 Y104.611 E14.58897
G1 X162.714 Y104.833 E14.62019
G1 X163.602 Y105.135 E14.65138
G1 X164.461 Y105.513 E14.6826
G1 X165.253 Y105.948 E14.71265
G1 X166.06 Y106.491 E14.745
G1 X166.787 Y107.079 E14.7761
G1 X167.363 Y107.623 E14.80245
G1 X168.021 Y108.325 E14.83445
G1 X168.6 Y109.064 E14.86568
G1 X169.111 Y109.851 E14.89689
G1 X169.551 Y110.68 E14.9281
G1 X169.916 Y111.545 E14.95933
G1 X170.206 Y112.448 E14.99088
G1 X170.844 Y114.784 E15.07142
G1 X171.571 Y117.225 E15.15613
G1 X172.35 Y119.595 E15.2391
G1 X173.22 Y122.009 E15.32445
G1 X174.128 Y124.322 E15.4071
G1 X175.132 Y126.678 E15.49228
G1 X176.177 Y128.951 E15.57548
G1 X177.658 Y131.946 E15.68661
G1 X177.921 Y132.522 E15.70767
G1 X178.446 Y133.77 E15.7527
G1 X178.703 Y134.445 E15.77673
G1 X179.167 Y135.805 E15.82452
G1 X179.378 Y136.502 E15.84874
G1 X179.735 Y137.85 E15.89512
G1 X179.885 Y138.505 E15.91747
G1 X180.123 Y139.711 E15.95836
G1 X180.232 Y140.378 E15.98083
G1 X180.407 Y141.729 E16.02614
G1 X180.474 Y142.442 E16.04996
G1 X180.556 Y143.787 E16.09478
G1 X180.573 Y144.237 E16.10976
G1 X180.6 Y145.872 E16.16415
G1 X180.598 Y183.467 E17.41456
G1 X180.58 Y184.393 E17.44537
G1 X180.519 Y185.329 E17.47656
G1 X180.376 Y186.257 E17.50779
G1 X180.151 Y187.169 E17.53904
G1 X179.839 Y188.079 E17.57103
G1 X179.716 Y188.388 E17.58209
G1 X179.331 Y189.244 E17.61331
G1 X178.872 Y190.061 E17.64448
G1 X178.407 Y190.749 E17.6721
G1 X178.236 Y190.982 E17.68171
G1 X177.646 Y191.712 E17.71293
G1 X176.993 Y192.386 E17.74414
G1 X176.174 Y193.095 E17.78017
G1 X175.309 Y193.717 E17.81561
G1 X174.503 Y194.194 E17.84676
G1 X173.776 Y194.547 E17.87364
G1 X173.528 Y194.656 E17.88265
G1 X172.652 Y194.994 E17.91388
G1 X171.751 Y195.254 E17.94507
G1 X170.84 Y195.431 E17.97593
M204 S2000
G0 F7500 X170.781 Y195.035
M204 S500
G1 F1500 X170.479 Y195.08 E17.98609
G1 X169.326 Y195.185 E18.0246
G1 X168.743 Y195.199 E18.04399
G1 X131.505 Y195.198 E19.28254
G1 X130.627 Y195.181 E19.31174
G1 X129.725 Y195.124 E19.3418
G1 X128.833 Y194.987 E19.37182
G1 X127.956 Y194.771 E19.40186
G1 X127.085 Y194.473 E19.43248
G1 X126.788 Y194.356 E19.4431
G1 X125.964 Y193.988 E19.47311
G1 X125.175 Y193.549 E19.50314
G1 X124.456 Y193.062 E19.53203
G1 X124.24 Y192.902 E19.54097
G1 X123.538 Y192.333 E19.57102
G1 X122.89 Y191.704 E19.60106
G1 X122.315 Y191.038 E19.63032
G1 X122.159 Y190.841 E19.63868
G1 X121.63 Y190.109 E19.66872
G1 X121.168 Y189.333 E19.69876
G1 X120.803 Y188.58 E19.72659
G1 X120.702 Y188.348 E19.735
G1 X120.378 Y187.505 E19.76504
G1 X120.131 Y186.637 E19.79506
G1 X119.966 Y185.785 E19.82392
G1 X119.921 Y185.484 E19.83404
G1 X119.815 Y184.316 E19.87305
G1 X119.801 Y183.736 E19.89235
G1 X119.802 Y145.657 E21.15886
G1 X119.831 Y144.025 E21.21315
G1 X119.855 Y143.419 E21.23332
G1 X119.976 Y141.9 E21.284
G1 X120.038 Y141.326 E21.30321
G1 X120.3 Y139.617 E21.36071
G1 X120.426 Y138.959 E21.38299
G1 X120.698 Y137.754 E21.42408
G1 X120.868 Y137.102 E21.44649
G1 X121.263 Y135.769 E21.49273
G1 X121.489 Y135.095 E21.51638
G1 X121.975 Y133.795 E21.56254
G1 X122.24 Y133.153 E21.58564
G1 X122.981 Y131.538 E21.64474
G1 X123.407 Y130.69 E21.6763
G1 X124.506 Y128.421 E21.76016
G1 X125.559 Y126.083 E21.84544
G1 X126.537 Y123.73 E21.93019
G1 X127.437 Y121.386 E22.0137
G1 X128.286 Y118.969 E22.09891
G1 X129.044 Y116.6 E22.18164
G1 X130.12 Y112.779 E22.31367
G1 X130.382 Y111.915 E22.3437
G1 X130.721 Y111.077 E22.37376
G1 X131.315 Y109.951 E22.4161
G1 X131.886 Y109.094 E22.45036
G1 X132.452 Y108.39 E22.4804
G1 X133.077 Y107.738 E22.51044
G1 X133.758 Y107.144 E22.5405
G1 X134.488 Y106.613 E22.57052
G1 X135.161 Y106.202 E22.59675
G1 X135.96 Y105.781 E22.62679
G1 X136.793 Y105.433 E22.65681
G1 X137.654 Y105.16 E22.68685
G1 X138.536 Y104.964 E22.7169
G1 X139.431 Y104.847 E22.74693
G1 X140.171 Y104.81 E22.77157
G1 X140.986 Y104.8 E22.79868
G1 X159.133 Y104.801 E23.40225
G1 X159.913 Y104.813 E23.4282
G1 X160.814 Y104.867 E23.45822
G1 X161.708 Y105 E23.48828
G1 X162.586 Y105.212 E23.51832
G1 X163.441 Y105.501 E23.54834
G1 X164.268 Y105.864 E23.57838
G1 X165.06 Y106.299 E23.60843
G1 X165.809 Y106.802 E23.63844
G1 X166.512 Y107.37 E23.6685
G1 X167.088 Y107.914 E23.69485
G1 X167.707 Y108.572 E23.7249
G1 X168.265 Y109.282 E23.75493
G1 X168.758 Y110.039 E23.78498
G1 X169.183 Y110.836 E23.81502
G1 X169.535 Y111.667 E23.84504
G1 X169.82 Y112.553 E23.87599
G1 X170.136 Y113.718 E23.91614
G1 X170.24 Y114.07 E23.92835
G1 X170.461 Y114.898 E23.95685
G1 X171.191 Y117.35 E24.04194
G1 X171.974 Y119.731 E24.12531
G1 X172.848 Y122.155 E24.21101
G1 X173.76 Y124.479 E24.29405
G1 X174.764 Y126.835 E24.37923
G1 X175.818 Y129.128 E24.46316
G1 X177.294 Y132.112 E24.57389
G1 X177.552 Y132.677 E24.59455
G1 X178.072 Y133.912 E24.63912
G1 X178.324 Y134.574 E24.66268
G1 X178.784 Y135.921 E24.71002
G1 X178.991 Y136.604 E24.73376
G1 X179.345 Y137.94 E24.77972
G1 X179.493 Y138.582 E24.80164
G1 X179.728 Y139.775 E24.84208
G1 X179.835 Y140.43 E24.86415
G1 X180.009 Y141.767 E24.909
G1 X180.075 Y142.466 E24.93235
G1 X180.156 Y143.802 E24.97687
G1 X180.173 Y144.244 E24.99158
G1 X180.2 Y145.872 E25.04573
G1 X180.198 Y183.46 E26.29592
G1 X180.181 Y184.368 E26.32612
G1 X180.124 Y185.269 E26.35615
G1 X179.988 Y186.162 E26.38619
G1 X179.773 Y187.039 E26.41622
G1 X179.467 Y187.932 E26.44762
G1 X179.351 Y188.225 E26.4581
G1 X178.982 Y189.049 E26.48813
G1 X178.541 Y189.837 E26.51817
G1 X178.085 Y190.512 E26.54526
G1 X177.924 Y190.731 E26.5543
G1 X177.358 Y191.434 E26.58432
G1 X176.731 Y192.084 E26.61436
G1 X175.94 Y192.771 E26.6492
G1 X175.105 Y193.373 E26.68344
G1 X174.328 Y193.834 E26.71349
G1 X173.615 Y194.181 E26.73986
G1 X173.383 Y194.283 E26.74829
G1 X172.541 Y194.61 E26.77833
G1 X171.674 Y194.861 E26.80836
G1 X170.781 Y195.035 E26.83862
M204 S2000
G1 F2400 E26.03862
;MESH:%5B5_Support.stl
G0 F7500 X169.11 Y185.516
G0 X150 Y184.26
M204 S500
;TYPE:WALL-INNER
G1 F2400 E26.83862
G1 F1500 X169.046 Y184.26 E27.47209
G1 X169.18 Y184.18 E27.47728
G1 X169.26 Y184.04 E27.48264
G1 X169.26 Y145.003 E28.78102
G1 X169.213 Y143.651 E28.82601
G1 X169.073 Y142.344 E28.86973
G1 X168.84 Y141.004 E28.91497
G1 X168.526 Y139.729 E28.95864
G1 X168.107 Y138.437 E29.00382
G1 X167.607 Y137.196 E29.04832
G1 X167.033 Y136.013 E29.09205
G1 X166.37 Y134.853 E29.13649
G1 X164.504 Y132.08 E29.24766
G1 X163.507 Y130.406 E29.31246
G1 X162.599 Y128.661 E29.37789
G1 X161.799 Y126.869 E29.44316
G1 X161.095 Y125.013 E29.50918
G1 X160.515 Y123.169 E29.57348
G1 X160.03 Y121.24 E29.63963
G1 X159.664 Y119.306 E29.7051
G1 X159.413 Y117.361 E29.77033
G1 X159.294 Y115.74 E29.82439
G1 X140.701 Y115.737 E30.44279
G1 X140.58 Y117.394 E30.49805
G1 X140.332 Y119.306 E30.56218
G1 X139.966 Y121.24 E30.62764
G1 X139.481 Y123.169 E30.6938
G1 X138.896 Y125.029 E30.75865
G1 X138.193 Y126.892 E30.82488
G1 X137.393 Y128.678 E30.88997
G1 X136.491 Y130.409 E30.95489
G1 X135.472 Y132.111 E31.02087
G1 X133.626 Y134.853 E31.13081
G1 X132.963 Y136.013 E31.17525
G1 X132.389 Y137.196 E31.21898
G1 X131.881 Y138.456 E31.26417
G1 X131.474 Y139.729 E31.30862
G1 X131.156 Y141.005 E31.35236
G1 X130.923 Y142.343 E31.39753
G1 X130.787 Y143.65 E31.44124
G1 X130.741 Y145.015 E31.48666
G1 X130.736 Y184.037 E32.78454
G1 X130.818 Y184.18 E32.79002
G1 X130.956 Y184.26 E32.79533
G1 X150 Y184.26 E33.42873
M204 S2000
G1 F2400 E32.62873
G0 F7500 X150.236 Y155.9
G0 X150 Y155.709
M204 S500
G1 F2400 E33.42873
G1 F1500 X149.388 Y155.69 E33.4491
G1 X148.56 Y155.541 E33.47708
G1 X147.766 Y155.269 E33.505
G1 X147.012 Y154.885 E33.53314
G1 X146.327 Y154.393 E33.56119
G1 X145.736 Y153.821 E33.58854
G1 X145.224 Y153.157 E33.61643
G1 X144.812 Y152.427 E33.64431
G1 X144.506 Y151.608 E33.67339
G1 X144.332 Y150.832 E33.69984
G1 X144.276 Y149.999 E33.72761
G1 X144.341 Y149.131 E33.75656
G1 X144.501 Y148.399 E33.78148
G1 X144.831 Y147.539 E33.81212
G1 X145.221 Y146.843 E33.83866
G1 X145.763 Y146.147 E33.868
G1 X146.299 Y145.631 E33.89274
G1 X147.01 Y145.116 E33.92194
G1 X147.76 Y144.728 E33.95003
G1 X148.547 Y144.458 E33.9777
G1 X149.352 Y144.31 E34.00492
G1 X150.201 Y144.276 E34.03318
G1 X151.044 Y144.369 E34.06139
G1 X151.849 Y144.579 E34.08906
G1 X152.619 Y144.91 E34.11694
G1 X153.333 Y145.343 E34.14471
G1 X153.967 Y145.874 E34.17222
G1 X154.546 Y146.519 E34.20105
G1 X154.984 Y147.188 E34.22764
G1 X155.338 Y147.931 E34.25502
G1 X155.575 Y148.706 E34.28197
G1 X155.713 Y149.581 E34.31143
G1 X155.702 Y150.45 E34.34034
G1 X155.592 Y151.22 E34.36621
G1 X155.363 Y151.993 E34.39302
G1 X155.003 Y152.772 E34.42157
G1 X154.532 Y153.495 E34.45027
G1 X153.977 Y154.116 E34.47797
G1 X153.296 Y154.678 E34.50733
G1 X152.618 Y155.087 E34.53367
G1 X151.847 Y155.416 E34.56155
G1 X151.082 Y155.622 E34.5879
G1 X150.253 Y155.717 E34.61565
G1 X150 Y155.709 E34.62407
M204 S2000
G0 F7500 X150 Y155.313
M204 S500
;TYPE:WALL-OUTER
G1 F1503.8 X149.413 Y155.291 E34.64356
G1 F1500 X148.64 Y155.149 E34.6697
G1 X147.922 Y154.901 E34.69497
G1 X147.207 Y154.535 E34.72168
G1 X146.583 Y154.086 E34.74725
G1 X146.034 Y153.554 E34.77268
G1 X145.549 Y152.923 E34.79915
G1 X145.174 Y152.257 E34.82457
G1 X144.904 Y151.547 E34.84983
G1 X144.728 Y150.758 E34.87672
