;FLAVOR:Marlin
;TIME:2605
;Filament used: 2.05777m
;Layer height: 0.2
;MINX:96.3
;MINY:120.8
;MINZ:0.2
;MAXX:203.7
;MAXY:179.2
;MAXZ:4.2
;TARGET_MACHINE.NAME:Creality Ender-3 S1 Plus
;Generated with Cura_SteamEngine 5.9.1
M82 ;absolute extrusion mode
; Ender 3 S1 Plus Start G-code
; M413 S0 ; Disable power loss recovery
G92 E0 ; Reset Extruder

; Prep surfaces before auto home for better accuracy
M140 S75
M104 S215

G28 ; Home all axes
G1 Z10.0 F3000 ; Move Z Axis up little to prevent scratching of Heat Bed
G1 X0 Y0

M190 S75
M109 S215

G1 X0.1 Y20 Z0.3 F5000.0 ; Move to start position
G1 X0.1 Y200.0 Z0.3 F1500.0 E15 ; Draw the first line
G1 X0.4 Y200.0 Z0.3 F5000.0 ; Move to side a little
G1 X0.4 Y20 Z0.3 F1500.0 E30 ; Draw the second line
G92 E0 ; Reset Extruder
G1 Z2.0 F3000 ; Move Z Axis up little to prevent scratching of Heat Bed
G1 X5 Y20 Z0.3 F5000.0 ; Move over to prevent blob squish

G92 E0
G92 E0
G1 F2400 E-0.8
;LAYER_COUNT:21
;LAYER:0
M107
M204 S2000
G0 F7500 X192.856 Y179.005 Z0.2
M204 S500
;TYPE:SKIRT
G1 F2400 E0
G1 F1500 X191.849 Y179.127 E0.03374
G1 X190.819 Y179.19 E0.06806
G1 X189.987 Y179.2 E0.09573
G1 X109.849 Y179.199 E2.76113
G1 X109.113 Y179.187 E2.78562
G1 X108.089 Y179.122 E2.81974
G1 X107.596 Y179.066 E2.83625
G1 X106.636 Y178.912 E2.86859
G1 X105.731 Y178.686 E2.89961
G1 X105.165 Y178.503 E2.91939
G1 X104.701 Y178.338 E2.93577
G1 X103.864 Y177.998 E2.96582
G1 X102.583 Y177.308 E3.01422
G1 X102.168 Y177.047 E3.03052
G1 X101.426 Y176.532 E3.06056
G1 X100.628 Y175.867 E3.09511
G1 X99.916 Y175.167 E3.12832
G1 X99.262 Y174.445 E3.16072
G1 X98.716 Y173.725 E3.19078
G1 X98.171 Y172.879 E3.22425
G1 X97.693 Y172.03 E3.25665
G1 X97.294 Y171.149 E3.28882
G1 X96.96 Y170.222 E3.32159
G1 X96.683 Y169.288 E3.354
G1 X96.492 Y168.341 E3.38613
G1 X96.376 Y167.39 E3.41799
G1 X96.311 Y166.352 E3.45258
G1 X96.3 Y165.488 E3.48132
G1 X96.301 Y134.349 E4.51701
G1 X96.313 Y133.613 E4.54149
G1 X96.375 Y132.603 E4.57515
G1 X96.428 Y132.131 E4.59095
G1 X96.584 Y131.153 E4.62389
G1 X96.81 Y130.245 E4.65501
G1 X97.133 Y129.279 E4.68889
G1 X97.505 Y128.362 E4.7218
G1 X98.151 Y127.153 E4.76739
G1 X98.424 Y126.716 E4.78453
G1 X98.978 Y125.914 E4.81695
G1 X99.589 Y125.176 E4.84882
G1 X99.959 Y124.788 E4.86665
G1 X100.302 Y124.446 E4.88276
G1 X101.022 Y123.79 E4.91515
G1 X101.739 Y123.241 E4.94519
G1 X102.566 Y122.705 E4.97797
G1 X103.45 Y122.201 E5.01181
G1 X104.271 Y121.825 E5.04185
G1 X105.289 Y121.457 E5.07785
G1 X106.223 Y121.181 E5.11024
G1 X107.171 Y120.991 E5.1424
G1 X108.166 Y120.872 E5.17573
G1 X109.181 Y120.81 E5.20955
G1 X110.002 Y120.8 E5.23686
G1 X190.004 Y120.8 E7.89774
G1 X190.887 Y120.813 E7.92711
G1 X191.917 Y120.877 E7.96143
G1 X192.39 Y120.931 E7.97727
G1 X193.367 Y121.089 E8.01019
G1 X194.309 Y121.325 E8.04248
G1 X195.282 Y121.657 E8.07668
G1 X196.152 Y122.011 E8.10792
G1 X197.042 Y122.467 E8.14118
G1 X197.815 Y122.943 E8.17137
G1 X198.628 Y123.511 E8.20436
G1 X199.674 Y124.422 E8.25049
G1 X200.031 Y124.778 E8.26726
G1 X200.666 Y125.47 E8.2985
G1 X201.277 Y126.266 E8.33188
G1 X201.807 Y127.085 E8.36432
G1 X202.298 Y127.95 E8.3974
G1 X202.674 Y128.771 E8.42744
G1 X202.886 Y129.333 E8.44742
G1 X203.043 Y129.787 E8.46339
G1 X203.322 Y130.738 E8.49636
G1 X203.559 Y132.043 E8.54047
G1 X203.62 Y132.574 E8.55825
G1 X203.689 Y133.645 E8.59394
G1 X203.7 Y134.512 E8.62278
G1 X203.699 Y165.651 E9.65847
G1 X203.687 Y166.386 E9.68292
G1 X203.623 Y167.405 E9.71688
G1 X203.567 Y167.9 E9.73345
G1 X203.413 Y168.862 E9.76585
G1 X203.188 Y169.764 E9.79677
G1 X203.009 Y170.317 E9.8161
G1 X202.846 Y170.776 E9.8323
G1 X202.478 Y171.676 E9.86464
G1 X202.037 Y172.536 E9.89679
G1 X201.554 Y173.32 E9.92742
G1 X200.985 Y174.133 E9.96042
G1 X200.079 Y175.173 E10.0063
G1 X199.723 Y175.53 E10.02307
G1 X199.031 Y176.165 E10.0543
G1 X198.235 Y176.776 E10.08768
G1 X197.39 Y177.322 E10.12114
G1 X196.542 Y177.801 E10.15353
G1 X195.663 Y178.2 E10.18564
G1 X194.76 Y178.528 E10.21759
G1 X193.804 Y178.812 E10.25076
G1 X192.856 Y179.005 E10.28294
M204 S2000
G0 F7500 X192.808 Y178.608
M204 S500
G1 F1500 X191.825 Y178.728 E10.31588
G1 X190.814 Y178.79 E10.34957
G1 X189.987 Y178.8 E10.37708
G1 X109.855 Y178.799 E13.04228
G1 X109.138 Y178.788 E13.06613
G1 X108.134 Y178.725 E13.09959
G1 X107.659 Y178.671 E13.11549
G1 X106.733 Y178.524 E13.14667
G1 X105.828 Y178.298 E13.1777
G1 X105.299 Y178.126 E13.1962
G1 X104.852 Y177.967 E13.21198
G1 X104.015 Y177.627 E13.24202
G1 X102.796 Y176.969 E13.2881
G1 X102.396 Y176.718 E13.3038
G1 X101.654 Y176.203 E13.33385
G1 X100.908 Y175.582 E13.36613
G1 X100.212 Y174.898 E13.39859
G1 X99.581 Y174.203 E13.42981
G1 X99.035 Y173.483 E13.45986
G1 X98.519 Y172.682 E13.49155
G1 X98.057 Y171.865 E13.52277
G1 X97.67 Y171.013 E13.55389
G1 X97.343 Y170.108 E13.5859
G1 X97.075 Y169.208 E13.61713
G1 X96.889 Y168.292 E13.64822
G1 X96.775 Y167.365 E13.67929
G1 X96.711 Y166.347 E13.71321
G1 X96.7 Y165.488 E13.74178
G1 X96.701 Y134.355 E14.77727
G1 X96.712 Y133.638 E14.80112
G1 X96.773 Y132.648 E14.83411
G1 X96.826 Y132.176 E14.84991
G1 X96.972 Y131.25 E14.88109
G1 X97.198 Y130.342 E14.91221
G1 X97.504 Y129.429 E14.94424
G1 X97.858 Y128.551 E14.97572
G1 X98.504 Y127.342 E15.02132
G1 X98.753 Y126.943 E15.03696
G1 X99.286 Y126.169 E15.06821
G1 X99.879 Y125.452 E15.09916
G1 X100.241 Y125.071 E15.11664
G1 X100.572 Y124.741 E15.13219
G1 X101.265 Y124.108 E15.1634
G1 X101.982 Y123.559 E15.19344
G1 X102.783 Y123.041 E15.22517
G1 X103.617 Y122.565 E15.25711
G1 X104.438 Y122.189 E15.28714
G1 X105.403 Y121.84 E15.32127
G1 X106.302 Y121.573 E15.35246
G1 X107.219 Y121.388 E15.38358
G1 X108.19 Y121.271 E15.41611
G1 X109.186 Y121.21 E15.44929
G1 X110.007 Y121.2 E15.4766
G1 X189.998 Y121.2 E18.13711
G1 X190.862 Y121.212 E18.16585
G1 X191.872 Y121.275 E18.19951
G1 X192.327 Y121.326 E18.21474
G1 X193.27 Y121.477 E18.2465
G1 X194.18 Y121.704 E18.2777
G1 X195.131 Y122.028 E18.31111
G1 X196.001 Y122.382 E18.34235
G1 X196.832 Y122.808 E18.37341
G1 X197.605 Y123.284 E18.40361
G1 X198.365 Y123.813 E18.43441
G1 X199.411 Y124.724 E18.48054
G1 X199.736 Y125.048 E18.4958
G1 X200.371 Y125.74 E18.52704
G1 X200.941 Y126.483 E18.55819
G1 X201.459 Y127.283 E18.58989
G1 X201.934 Y128.117 E18.62181
G1 X202.31 Y128.938 E18.65184
G1 X202.508 Y129.463 E18.67051
G1 X202.659 Y129.901 E18.68592
G1 X202.928 Y130.809 E18.71741
G1 X203.165 Y132.114 E18.76153
G1 X203.221 Y132.6 E18.7778
G1 X203.289 Y133.65 E18.8128
G1 X203.3 Y134.512 E18.84147
G1 X203.299 Y165.645 E19.87696
G1 X203.288 Y166.361 E19.90077
G1 X203.226 Y167.36 E19.93406
G1 X203.172 Y167.837 E19.95003
G1 X203.025 Y168.765 E19.98128
G1 X202.8 Y169.667 E20.0122
G1 X202.632 Y170.184 E20.03028
G1 X202.476 Y170.625 E20.04584
G1 X202.122 Y171.494 E20.07705
G1 X201.696 Y172.326 E20.10814
G1 X201.213 Y173.11 E20.13876
G1 X200.683 Y173.87 E20.16958
G1 X199.777 Y174.91 E20.21546
G1 X199.453 Y175.235 E20.23072
G1 X198.761 Y175.87 E20.26196
G1 X198.018 Y176.44 E20.2931
G1 X197.193 Y176.974 E20.32579
G1 X196.376 Y177.437 E20.35702
G1 X195.526 Y177.824 E20.38809
G1 X194.623 Y178.152 E20.42004
G1 X193.724 Y178.42 E20.45124
G1 X192.808 Y178.608 E20.48234
M204 S2000
G0 F7500 X192.759 Y178.211
M204 S500
G1 F1500 X191.8 Y178.329 E20.51448
G1 X190.809 Y178.39 E20.5475
G1 X189.987 Y178.4 E20.57485
G1 X109.861 Y178.399 E23.23985
G1 X109.163 Y178.389 E23.26307
G1 X108.178 Y178.327 E23.29589
G1 X107.721 Y178.276 E23.31119
G1 X106.829 Y178.136 E23.34122
G1 X105.952 Y177.918 E23.37127
G1 X105.433 Y177.749 E23.38943
G1 X105.003 Y177.596 E23.40461
G1 X104.166 Y177.256 E23.43466
G1 X102.986 Y176.617 E23.47929
G1 X102.624 Y176.389 E23.49352
G1 X101.882 Y175.874 E23.52356
G1 X101.188 Y175.296 E23.5536
G1 X100.508 Y174.629 E23.58528
G1 X99.9 Y173.961 E23.61532
G1 X99.354 Y173.241 E23.64538
G1 X98.867 Y172.484 E23.67531
G1 X98.421 Y171.699 E23.70534
G1 X98.046 Y170.877 E23.73539
G1 X97.726 Y169.993 E23.76666
G1 X97.467 Y169.128 E23.7967
G1 X97.286 Y168.243 E23.82674
G1 X97.174 Y167.34 E23.857
G1 X97.111 Y166.342 E23.89026
G1 X97.1 Y165.488 E23.91867
G1 X97.101 Y134.361 E24.95396
G1 X97.111 Y133.663 E24.97718
G1 X97.171 Y132.692 E25.00953
G1 X97.221 Y132.238 E25.02472
G1 X97.36 Y131.346 E25.05475
G1 X97.577 Y130.469 E25.0848
G1 X97.875 Y129.578 E25.11605
G1 X98.211 Y128.739 E25.14611
G1 X98.844 Y127.553 E25.19082
G1 X99.083 Y127.169 E25.20586
G1 X99.594 Y126.424 E25.23591
G1 X100.169 Y125.728 E25.26594
G1 X100.531 Y125.347 E25.28342
G1 X100.842 Y125.036 E25.29805
G1 X101.508 Y124.426 E25.32809
G1 X102.225 Y123.877 E25.35812
G1 X103 Y123.377 E25.3888
G1 X103.784 Y122.929 E25.41883
G1 X104.605 Y122.553 E25.44886
G1 X105.517 Y122.223 E25.48112
G1 X106.382 Y121.965 E25.51114
G1 X107.267 Y121.785 E25.54118
G1 X108.215 Y121.67 E25.57294
G1 X109.191 Y121.61 E25.60547
G1 X110.012 Y121.6 E25.63278
G1 X189.993 Y121.6 E28.29295
G1 X190.837 Y121.611 E28.32103
G1 X191.827 Y121.673 E28.35402
G1 X192.282 Y121.724 E28.36925
G1 X193.174 Y121.865 E28.39929
G1 X194.051 Y122.083 E28.42934
G1 X194.981 Y122.399 E28.46201
G1 X195.819 Y122.738 E28.49208
G1 X196.622 Y123.149 E28.52208
G1 X197.395 Y123.625 E28.55227
G1 X198.136 Y124.141 E28.58231
G1 X199.129 Y125.008 E28.62615
G1 X199.442 Y125.319 E28.64083
G1 X200.054 Y125.984 E28.67089
G1 X200.605 Y126.7 E28.70093
G1 X201.123 Y127.5 E28.73263
G1 X201.57 Y128.284 E28.76265
G1 X201.946 Y129.105 E28.79268
G1 X202.13 Y129.594 E28.81006
G1 X202.276 Y130.015 E28.82488
G1 X202.534 Y130.88 E28.8549
G1 X202.771 Y132.185 E28.89902
G1 X202.822 Y132.626 E28.91378
G1 X202.889 Y133.655 E28.94808
G1 X202.9 Y134.512 E28.97659
G1 X202.899 Y165.639 E30.01188
G1 X202.889 Y166.336 E30.03506
G1 X202.828 Y167.316 E30.06772
G1 X202.777 Y167.775 E30.08308
G1 X202.637 Y168.668 E30.11314
G1 X202.419 Y169.544 E30.14317
G1 X202.255 Y170.051 E30.16089
G1 X202.105 Y170.475 E30.17585
G1 X201.766 Y171.312 E30.20589
G1 X201.355 Y172.116 E30.23592
G1 X200.872 Y172.9 E30.26655
G1 X200.355 Y173.641 E30.2966
G1 X199.493 Y174.628 E30.34018
G1 X199.182 Y174.941 E30.35486
G1 X198.517 Y175.553 E30.38492
G1 X197.801 Y176.104 E30.41497
G1 X196.995 Y176.626 E30.4469
G1 X196.21 Y177.073 E30.47695
G1 X195.389 Y177.448 E30.50697
G1 X194.508 Y177.769 E30.53816
G1 X193.643 Y178.028 E30.56819
G1 X192.759 Y178.211 E30.59821
M204 S2000
G1 F2400 E29.79821
;MESH:Controller_enclosure_lid.stl
G0 F7500 X190.803 Y168.856
G0 X150 Y167.6
M204 S500
;TYPE:WALL-INNER
G1 F2400 E30.59821
G1 F1500 X190.664 Y167.6 E31.9507
G1 X191.004 Y167.559 E31.96209
G1 X191.303 Y167.455 E31.97262
G1 X191.568 Y167.29 E31.98301
G1 X191.79 Y167.068 E31.99345
G1 X191.955 Y166.803 E32.00383
G1 X192.059 Y166.504 E32.01436
G1 X192.1 Y166.164 E32.02575
G1 X192.1 Y133.832 E33.10112
G1 X192.06 Y133.492 E33.1125
G1 X191.955 Y133.193 E33.12304
G1 X191.791 Y132.929 E33.13338
G1 X191.568 Y132.709 E33.1438
G1 X191.301 Y132.541 E33.15429
G1 X191.006 Y132.438 E33.16469
G1 X190.667 Y132.4 E33.17603
G1 X109.329 Y132.4 E35.88134
G1 X108.989 Y132.438 E35.89272
G1 X108.695 Y132.54 E35.90307
G1 X108.43 Y132.708 E35.91351
G1 X108.208 Y132.93 E35.92395
G1 X108.041 Y133.195 E35.93437
G1 X107.938 Y133.49 E35.94476
G1 X107.9 Y133.829 E35.95611
G1 X107.9 Y166.167 E37.03167
G1 X107.938 Y166.507 E37.04305
G1 X108.04 Y166.801 E37.0534
G1 X108.209 Y167.068 E37.06391
G1 X108.43 Y167.291 E37.07436
G1 X108.693 Y167.455 E37.08466
G1 X108.992 Y167.559 E37.09519
G1 X109.332 Y167.6 E37.10658
G1 X150 Y167.6 E38.45921
M204 S2000
G0 F7500 X150 Y168
M204 S500
;TYPE:WALL-OUTER
G1 F1500 X190.688 Y168 E39.8125
G1 X191.094 Y167.951 E39.8261
G1 X191.477 Y167.818 E39.83958
G1 X191.818 Y167.606 E39.85294
G1 X192.106 Y167.318 E39.86648
G1 X192.318 Y166.977 E39.87984
G1 X192.451 Y166.594 E39.89332
G1 X192.5 Y166.188 E39.90692
G1 X192.5 Y133.808 E40.98389
G1 X192.452 Y133.402 E40.99749
G1 X192.318 Y133.019 E41.01098
G1 X192.106 Y132.678 E41.02434
G1 X191.818 Y132.394 E41.03779
G1 X191.476 Y132.178 E41.05124
G1 X191.095 Y132.045 E41.06466
G1 X190.689 Y132 E41.07825
G1 X109.307 Y132 E43.78503
G1 X108.901 Y132.045 E43.79861
G1 X108.52 Y132.178 E43.81204
G1 X108.178 Y132.394 E43.82549
G1 X107.894 Y132.678 E43.83885
G1 X107.678 Y133.02 E43.8523
G1 X107.545 Y133.401 E43.86572
G1 X107.5 Y133.807 E43.87931
G1 X107.5 Y166.189 E44.95634
G1 X107.545 Y166.595 E44.96993
G1 X107.678 Y166.976 E44.98335
G1 X107.894 Y167.318 E44.9968
G1 X108.178 Y167.606 E45.01025
G1 X108.519 Y167.818 E45.02361
G1 X108.902 Y167.951 E45.03709
G1 X109.308 Y168 E45.0507
G1 X150 Y168 E46.40412
M204 S2000
G0 F7500 X150 Y167.24
M204 S500
;TYPE:SKIN
G1 F1500 X109.357 Y167.24 E47.75591
G1 X109.074 Y167.204 E47.7654
G1 X108.847 Y167.126 E47.77338
G1 X108.494 Y166.846 E47.78837
G1 X108.289 Y166.423 E47.804
G1 X108.261 Y166.145 E47.81329
G1 X108.26 Y133.843 E48.88766
G1 X108.289 Y133.572 E48.89673
G1 X108.49 Y133.154 E48.91215
G1 X108.654 Y132.99 E48.91987
G1 X109.072 Y132.789 E48.93529
G1 X109.347 Y132.76 E48.94449
G1 X190.645 Y132.76 E51.64847
G1 X190.923 Y132.789 E51.65777
G1 X191.346 Y132.994 E51.67341
G1 X191.626 Y133.347 E51.68839
G1 X191.704 Y133.574 E51.69637
G1 X191.74 Y133.857 E51.70586
G1 X191.74 Y166.135 E52.77943
G1 X191.704 Y166.418 E52.78892
G1 X191.626 Y166.649 E52.79703
G1 X191.506 Y166.838 E52.80448
G1 X191.149 Y167.126 E52.81973
G1 X190.918 Y167.204 E52.82784
G1 X190.635 Y167.24 E52.83733
G1 X150 Y167.24 E54.18886
M204 S2000
G1 F2400 E53.38886
G0 F7500 X150 Y167.5
G0 X109.279 Y167.492
G0 X109.335 Y167.035
M204 S500
G1 F2400 E54.18886
G1 F1500 X108.46 Y166.16 E54.23001
M204 S2000
G0 F7500 X108.46 Y165.595
M204 S500
G1 F1500 X109.906 Y167.04 E54.29801
M204 S2000
G0 F7500 X110.471 Y167.04
M204 S500
G1 F1500 X108.46 Y165.029 E54.3926
M204 S2000
G0 F7500 X108.46 Y164.463
M204 S500
G1 F1500 X111.037 Y167.04 E54.51381
M204 S2000
G0 F7500 X111.603 Y167.04
M204 S500
G1 F1500 X108.46 Y163.897 E54.66165
M204 S2000
G0 F7500 X108.46 Y163.332
M204 S500
G1 F1500 X112.168 Y167.04 E54.83606
M204 S2000
G0 F7500 X112.734 Y167.04
M204 S500
G1 F1500 X108.46 Y162.766 E55.0371
M204 S2000
G0 F7500 X108.46 Y162.2
M204 S500
G1 F1500 X113.3 Y167.04 E55.26476
M204 S2000
G0 F7500 X113.865 Y167.04
M204 S500
G1 F1500 X108.46 Y161.635 E55.51899
M204 S2000
G0 F7500 X108.46 Y161.069
M204 S500
G1 F1500 X114.431 Y167.04 E55.79985
M204 S2000
G0 F7500 X114.997 Y167.04
M204 S500
G1 F1500 X108.46 Y160.503 E56.10733
M204 S2000
G0 F7500 X108.46 Y159.938
M204 S500
G1 F1500 X115.562 Y167.04 E56.44138
M204 S2000
G0 F7500 X116.128 Y167.04
M204 S500
G1 F1500 X108.46 Y159.372 E56.80206
M204 S2000
G0 F7500 X108.46 Y158.806
M204 S500
G1 F1500 X116.694 Y167.04 E57.18937
M204 S2000
G0 F7500 X117.26 Y167.04
M204 S500
G1 F1500 X108.46 Y158.241 E57.60327
M204 S2000
G0 F7500 X108.46 Y157.675
M204 S500
G1 F1500 X117.825 Y167.04 E58.04377
M204 S2000
G0 F7500 X118.391 Y167.04
M204 S500
G1 F1500 X108.46 Y157.109 E58.51089
M204 S2000
G0 F7500 X108.46 Y156.544
M204 S500
G1 F1500 X118.957 Y167.04 E59.00462
M204 S2000
G0 F7500 X119.522 Y167.04
M204 S500
G1 F1500 X108.46 Y155.978 E59.52494
M204 S2000
G0 F7500 X108.46 Y155.412
M204 S500
G1 F1500 X120.088 Y167.04 E60.07188
M204 S2000
G0 F7500 X120.654 Y167.04
M204 S500
G1 F1500 X108.46 Y154.846 E60.64545
M204 S2000
G0 F7500 X108.46 Y154.281
M204 S500
G1 F1500 X121.219 Y167.04 E61.2456
M204 S2000
G0 F7500 X121.785 Y167.04
M204 S500
G1 F1500 X108.46 Y153.715 E61.87236
M204 S2000
G0 F7500 X108.46 Y153.149
M204 S500
G1 F1500 X122.351 Y167.04 E62.52575
M204 S2000
G0 F7500 X122.916 Y167.04
M204 S500
G1 F1500 X108.46 Y152.584 E63.20572
M204 S2000
G0 F7500 X108.46 Y152.018
M204 S500
