;FLAVOR:Marlin
;TIME:11074
;Filament used: 10.2872m
;Layer height: 0.2
;MINX:118.444
;MINY:104.872
;MINZ:0.2
;MAXX:181.555
;MAXY:182.672
;MAXZ:64.2
;TARGET_MACHINE.NAME:Creality Ender-3 S1 Plus
;Generated with Cura_SteamEngine 5.9.1
M82 ;absolute extrusion mode
; Ender 3 S1 Plus Start G-code
; M413 S0 ; Disable power loss recovery
G92 E0 ; Reset Extruder

; Prep surfaces before auto home for better accuracy
M140 S75
M104 S215

G28 ; Home all axes
G1 Z10.0 F3000 ; Move Z Axis up little to prevent scratching of Heat Bed
G1 X0 Y0

M190 S75
M109 S215

G1 X0.1 Y20 Z0.3 F5000.0 ; Move to start position
G1 X0.1 Y200.0 Z0.3 F1500.0 E15 ; Draw the first line
G1 X0.4 Y200.0 Z0.3 F5000.0 ; Move to side a little
G1 X0.4 Y20 Z0.3 F1500.0 E30 ; Draw the second line
G92 E0 ; Reset Extruder
G1 Z2.0 F3000 ; Move Z Axis up little to prevent scratching of Heat Bed
G1 X5 Y20 Z0.3 F5000.0 ; Move over to prevent blob squish

G92 E0
G92 E0
G1 F2400 E-0.8
;LAYER_COUNT:321
;LAYER:0
M107
M204 S2000
G0 F7500 X171.481 Y182.561 Z0.2
M204 S500
;TYPE:SKIRT
G1 F2400 E0
G1 F1500 X170.345 Y182.657 E0.03792
G1 X169.67 Y182.672 E0.06037
G1 X130.564 Y182.671 E1.36105
G1 X129.831 Y182.66 E1.38543
G1 X128.859 Y182.603 E1.41781
G1 X127.896 Y182.457 E1.45021
G1 X126.95 Y182.228 E1.48258
G1 X126.026 Y181.916 E1.51502
G1 X125.136 Y181.524 E1.54736
G1 X124.313 Y181.073 E1.57858
G1 X123.474 Y180.512 E1.61215
G1 X122.77 Y179.946 E1.64219
G1 X122.017 Y179.221 E1.67696
G1 X121.38 Y178.485 E1.70933
G1 X120.85 Y177.754 E1.73936
G1 X120.314 Y176.857 E1.77412
G1 X119.892 Y175.979 E1.80652
G1 X119.55 Y175.067 E1.83891
G1 X119.29 Y174.129 E1.87129
G1 X119.112 Y173.16 E1.90406
G1 X119.013 Y171.957 E1.9442
G1 X119 Y171.348 E1.96446
G1 X119 Y138.752 E3.04861
G1 X118.963 Y136.158 E3.1349
G1 X118.854 Y133.612 E3.21965
G1 X118.677 Y131.114 E3.30295
G1 X118.516 Y129.334 E3.36239
G1 X118.476 Y128.659 E3.38488
G1 X118.463 Y128.041 E3.40544
G1 X118.459 Y122.913 E3.576
G1 X118.444 Y121.577 E3.62044
G1 X118.455 Y120.491 E3.65656
G1 X118.51 Y119.517 E3.68901
G1 X118.64 Y118.623 E3.71905
G1 X118.881 Y117.607 E3.75378
G1 X119.191 Y116.684 E3.78617
G1 X119.582 Y115.792 E3.81856
G1 X120.05 Y114.938 E3.85095
G1 X120.592 Y114.129 E3.88334
G1 X121.202 Y113.37 E3.91573
G1 X121.827 Y112.718 E3.94576
G1 X122.623 Y112.024 E3.98089
G1 X123.643 Y111.305 E4.0224
G1 X124.324 Y110.882 E4.04906
G1 X124.918 Y110.534 E4.07196
G1 X125.753 Y110.104 E4.1032
G1 X126.687 Y109.724 E4.13673
G1 X127.605 Y109.441 E4.16868
G1 X128.132 Y109.319 E4.18668
G1 X128.667 Y109.21 E4.20484
G1 X131.267 Y108.631 E4.29343
G1 X133.675 Y108.024 E4.37603
G1 X136.135 Y107.33 E4.46104
G1 X138.523 Y106.582 E4.54427
G1 X140.731 Y105.806 E4.62211
G1 X141.729 Y105.467 E4.65717
G1 X142.681 Y105.193 E4.69012
G1 X143.637 Y105.006 E4.72252
G1 X144.588 Y104.906 E4.75432
G1 X145.077 Y104.887 E4.7706
G1 X145.884 Y104.874 E4.79744
G1 X154.033 Y104.872 E5.06848
G1 X154.925 Y104.885 E5.09815
G1 X155.896 Y104.944 E5.13051
G1 X156.859 Y105.09 E5.1629
G1 X157.737 Y105.301 E5.19293
G1 X158.389 Y105.507 E5.21568
G1 X160.785 Y106.351 E5.30017
G1 X163.202 Y107.128 E5.38461
G1 X165.59 Y107.822 E5.46732
G1 X168.024 Y108.456 E5.55098
G1 X172.035 Y109.35 E5.68766
G1 X172.975 Y109.607 E5.72007
G1 X173.861 Y109.935 E5.75149
G1 X175.01 Y110.495 E5.79401
G1 X175.781 Y110.934 E5.82351
G1 X176.237 Y111.209 E5.84123
G1 X177.061 Y111.758 E5.87416
G1 X177.767 Y112.322 E5.90421
G1 X178.522 Y113.045 E5.93898
G1 X179.161 Y113.78 E5.97137
G1 X179.733 Y114.567 E6.00373
G1 X180.235 Y115.403 E6.03617
G1 X180.659 Y116.28 E6.06857
G1 X181.003 Y117.19 E6.10092
G1 X181.266 Y118.128 E6.13332
G1 X181.445 Y119.085 E6.16571
G1 X181.539 Y120.041 E6.19766
G1 X181.555 Y120.644 E6.21772
G1 X181.544 Y127.86 E6.45772
G1 X181.531 Y128.577 E6.48158
G1 X181.491 Y129.338 E6.50692
G1 X181.234 Y132.252 E6.60422
G1 X181.089 Y134.757 E6.68767
G1 X181.012 Y137.278 E6.77156
G1 X181 Y138.782 E6.82159
G1 X180.999 Y171.088 E7.89609
G1 X180.987 Y171.849 E7.9214
G1 X180.929 Y172.822 E7.95382
G1 X180.783 Y173.785 E7.98622
G1 X180.552 Y174.732 E8.01864
G1 X180.239 Y175.654 E8.05102
G1 X179.847 Y176.545 E8.0834
G1 X179.395 Y177.367 E8.1146
G1 X178.833 Y178.205 E8.14816
G1 X178.243 Y178.935 E8.17938
G1 X177.54 Y179.661 E8.21299
G1 X176.804 Y180.297 E8.24534
G1 X176.014 Y180.867 E8.27774
G1 X175.238 Y181.33 E8.3078
G1 X174.298 Y181.783 E8.3425
G1 X173.385 Y182.125 E8.37493
G1 X172.447 Y182.384 E8.4073
G1 X171.481 Y182.561 E8.43996
M204 S2000
G0 F7500 X171.447 Y182.162
M204 S500
G1 F1500 X170.311 Y182.258 E8.47788
G1 X169.67 Y182.272 E8.4992
G1 X130.57 Y182.271 E9.79968
G1 X129.854 Y182.261 E9.82349
G1 X128.918 Y182.207 E9.85468
G1 X127.989 Y182.068 E9.88592
G1 X127.077 Y181.849 E9.91711
G1 X126.187 Y181.55 E9.94834
G1 X125.328 Y181.173 E9.97954
G1 X124.505 Y180.722 E10.01076
G1 X123.725 Y180.2 E10.04197
G1 X123.021 Y179.634 E10.07202
G1 X122.319 Y178.959 E10.10441
G1 X121.704 Y178.25 E10.13562
G1 X121.174 Y177.519 E10.16566
G1 X120.674 Y176.683 E10.19805
G1 X120.266 Y175.838 E10.22926
G1 X119.935 Y174.96 E10.26047
G1 X119.683 Y174.056 E10.29169
G1 X119.511 Y173.127 E10.32311
G1 X119.413 Y171.948 E10.36246
G1 X119.4 Y171.339 E10.38272
G1 X119.4 Y138.752 E11.46657
G1 X119.363 Y136.152 E11.55305
G1 X119.254 Y133.595 E11.63818
G1 X119.076 Y131.086 E11.72184
G1 X118.915 Y129.31 E11.78115
G1 X118.876 Y128.65 E11.80314
G1 X118.863 Y128.041 E11.8234
G1 X118.859 Y122.913 E11.99396
G1 X118.844 Y121.581 E12.03826
G1 X118.854 Y120.513 E12.07378
G1 X118.906 Y119.575 E12.10503
G1 X119.036 Y118.681 E12.13508
G1 X119.26 Y117.734 E12.16744
G1 X119.558 Y116.844 E12.19866
G1 X119.933 Y115.984 E12.22987
G1 X120.383 Y115.16 E12.26109
G1 X120.904 Y114.379 E12.29232
G1 X121.491 Y113.647 E12.32353
G1 X122.116 Y112.995 E12.35357
G1 X122.854 Y112.351 E12.38614
G1 X123.854 Y111.645 E12.42686
G1 X124.526 Y111.227 E12.45318
G1 X125.101 Y110.89 E12.47535
G1 X125.936 Y110.46 E12.50658
G1 X126.805 Y110.106 E12.53779
G1 X127.695 Y109.831 E12.56878
G1 X128.213 Y109.711 E12.58646
G1 X128.748 Y109.601 E12.60463
G1 X131.365 Y109.019 E12.6938
G1 X133.773 Y108.412 E12.77639
G1 X136.255 Y107.712 E12.86216
G1 X138.643 Y106.963 E12.9454
G1 X140.86 Y106.185 E13.02355
G1 X141.858 Y105.846 E13.05861
G1 X142.758 Y105.585 E13.08977
G1 X143.679 Y105.404 E13.12099
G1 X144.604 Y105.306 E13.15193
G1 X145.083 Y105.287 E13.16787
G1 X145.884 Y105.274 E13.19452
G1 X154.028 Y105.272 E13.46539
G1 X154.901 Y105.284 E13.49443
G1 X155.837 Y105.34 E13.52562
G1 X156.766 Y105.479 E13.55686
G1 X157.644 Y105.69 E13.58689
G1 X158.256 Y105.884 E13.60825
G1 X160.663 Y106.732 E13.69313
G1 X163.083 Y107.51 E13.77767
G1 X165.482 Y108.207 E13.86076
G1 X167.923 Y108.843 E13.94466
G1 X171.93 Y109.736 E14.0812
G1 X172.836 Y109.982 E14.11243
G1 X173.722 Y110.31 E14.14385
G1 X174.812 Y110.843 E14.18421
G1 X175.574 Y111.277 E14.21337
G1 X176.03 Y111.552 E14.23109
G1 X176.811 Y112.071 E14.26227
G1 X177.517 Y112.635 E14.29233
G1 X178.221 Y113.308 E14.32472
G1 X178.838 Y114.015 E14.35593
G1 X179.39 Y114.773 E14.38712
G1 X179.875 Y115.578 E14.41838
G1 X180.285 Y116.422 E14.44959
G1 X180.618 Y117.299 E14.48079
G1 X180.873 Y118.202 E14.512
G1 X181.047 Y119.124 E14.5432
G1 X181.139 Y120.052 E14.57422
G1 X181.155 Y120.643 E14.59388
G1 X181.144 Y127.853 E14.83369
G1 X181.132 Y128.556 E14.85708
G1 X181.093 Y129.303 E14.88195
G1 X180.836 Y132.217 E14.97925
G1 X180.689 Y134.745 E15.06347
G1 X180.612 Y137.266 E15.14736
G1 X180.6 Y138.779 E15.19769
G1 X180.599 Y171.082 E16.27209
G1 X180.588 Y171.826 E16.29684
G1 X180.533 Y172.763 E16.32806
G1 X180.394 Y173.691 E16.35927
G1 X180.173 Y174.604 E16.39051
G1 X179.873 Y175.493 E16.42172
G1 X179.496 Y176.352 E16.45292
G1 X179.044 Y177.174 E16.48412
G1 X178.521 Y177.954 E16.51535
G1 X177.955 Y178.657 E16.54537
G1 X177.278 Y179.359 E16.57781
G1 X176.57 Y179.973 E16.60898
G1 X175.809 Y180.523 E16.64021
G1 X175.033 Y180.986 E16.67026
G1 X174.157 Y181.409 E16.70262
G1 X173.278 Y181.74 E16.73386
G1 X172.374 Y181.991 E16.76506
G1 X171.447 Y182.162 E16.79641
M204 S2000
G0 F7500 X171.413 Y181.763
M204 S500
G1 F1500 X170.277 Y181.859 E16.83433
G1 X169.67 Y181.872 E16.85452
G1 X130.575 Y181.871 E18.15483
G1 X129.877 Y181.862 E18.17805
G1 X128.976 Y181.811 E18.20806
G1 X128.082 Y181.679 E18.23812
G1 X127.204 Y181.47 E18.26814
G1 X126.347 Y181.183 E18.2982
G1 X125.52 Y180.822 E18.32821
G1 X124.727 Y180.389 E18.35826
G1 X123.976 Y179.888 E18.38829
G1 X123.272 Y179.322 E18.41833
G1 X122.621 Y178.696 E18.44837
G1 X122.028 Y178.015 E18.4784
G1 X121.498 Y177.284 E18.50844
G1 X121.034 Y176.509 E18.53848
G1 X120.64 Y175.696 E18.56853
G1 X120.32 Y174.852 E18.59855
G1 X120.076 Y173.982 E18.6286
G1 X119.91 Y173.094 E18.65865
G1 X119.813 Y171.939 E18.6972
G1 X119.8 Y171.33 E18.71746
G1 X119.8 Y138.752 E19.80101
G1 X119.763 Y136.146 E19.88769
G1 X119.654 Y133.578 E19.97318
G1 X119.475 Y131.058 E20.05721
G1 X119.314 Y129.287 E20.11636
G1 X119.276 Y128.641 E20.13788
G1 X119.263 Y128.041 E20.15784
G1 X119.259 Y122.913 E20.3284
G1 X119.244 Y121.584 E20.3726
G1 X119.253 Y120.535 E20.40749
G1 X119.302 Y119.633 E20.43754
G1 X119.432 Y118.739 E20.46759
G1 X119.64 Y117.86 E20.49763
G1 X119.925 Y117.003 E20.52767
G1 X120.284 Y116.175 E20.55768
G1 X120.716 Y115.381 E20.58775
G1 X121.216 Y114.629 E20.61778
G1 X121.78 Y113.924 E20.64781
G1 X122.405 Y113.272 E20.67785
G1 X123.085 Y112.678 E20.70788
G1 X124.065 Y111.985 E20.7478
G1 X124.729 Y111.572 E20.77381
G1 X125.285 Y111.245 E20.79527
G1 X126.088 Y110.83 E20.82533
G1 X126.923 Y110.488 E20.85534
G1 X127.786 Y110.221 E20.88539
G1 X128.294 Y110.103 E20.90273
G1 X128.829 Y109.992 E20.92091
G1 X131.463 Y109.407 E21.01065
G1 X133.871 Y108.8 E21.09324
G1 X136.375 Y108.094 E21.17977
G1 X138.763 Y107.344 E21.26303
G1 X140.989 Y106.564 E21.34148
G1 X141.97 Y106.23 E21.37594
G1 X142.836 Y105.977 E21.40595
G1 X143.722 Y105.802 E21.43599
G1 X144.62 Y105.706 E21.46603
G1 X145.09 Y105.687 E21.48167
G1 X145.884 Y105.674 E21.50808
G1 X154.023 Y105.672 E21.77879
G1 X154.878 Y105.683 E21.80723
G1 X155.779 Y105.736 E21.83725
G1 X156.673 Y105.868 E21.8673
G1 X157.551 Y106.079 E21.89734
G1 X158.123 Y106.261 E21.9173
G1 X160.541 Y107.113 E22.00257
G1 X162.964 Y107.892 E22.08722
G1 X165.374 Y108.592 E22.17069
G1 X167.822 Y109.23 E22.25483
G1 X171.826 Y110.122 E22.39127
G1 X172.698 Y110.357 E22.42131
G1 X173.546 Y110.669 E22.45136
G1 X174.614 Y111.191 E22.4909
G1 X175.368 Y111.62 E22.51975
G1 X175.809 Y111.885 E22.53687
G1 X176.561 Y112.384 E22.56688
G1 X177.267 Y112.948 E22.59694
G1 X177.92 Y113.571 E22.62696
G1 X178.515 Y114.251 E22.65701
G1 X179.048 Y114.98 E22.68704
G1 X179.515 Y115.753 E22.71708
G1 X179.911 Y116.565 E22.74713
G1 X180.233 Y117.408 E22.77714
G1 X180.48 Y118.277 E22.80719
G1 X180.649 Y119.164 E22.83722
G1 X180.739 Y120.063 E22.86727
G1 X180.755 Y120.642 E22.88654
G1 X180.744 Y127.847 E23.12618
G1 X180.733 Y128.535 E23.14906
G1 X180.695 Y129.268 E23.17348
G1 X180.438 Y132.182 E23.27077
G1 X180.289 Y134.733 E23.35576
G1 X180.212 Y137.254 E23.43965
G1 X180.2 Y138.776 E23.49028
G1 X180.199 Y171.076 E24.56458
G1 X180.189 Y171.803 E24.58876
G1 X180.137 Y172.705 E24.61881
G1 X180.005 Y173.598 E24.64884
G1 X179.794 Y174.477 E24.6789
G1 X179.507 Y175.333 E24.70893
G1 X179.145 Y176.16 E24.73896
G1 X178.711 Y176.952 E24.76899
G1 X178.209 Y177.703 E24.79904
G1 X177.643 Y178.406 E24.82906
G1 X177.016 Y179.057 E24.85912
G1 X176.335 Y179.649 E24.88913
G1 X175.604 Y180.179 E24.91916
G1 X174.828 Y180.642 E24.94922
G1 X174.015 Y181.035 E24.97925
G1 X173.17 Y181.355 E25.0093
G1 X172.301 Y181.598 E25.03931
G1 X171.413 Y181.763 E25.06936
M204 S2000
G1 F2400 E24.26936
G0 F7500 X170.653 Y128.519
G0 X166.75 Y125.037
G0 X166.75 Y124.572
M204 S500
G1 F2400 E25.06936
G1 F1500 X133.26 Y124.572 E26.18324
G1 X133.259 Y123.754 E26.21044
G1 X141.863 Y123.694 E26.49662
G1 X142.073 Y123.687 E26.50361
G1 X142.603 Y123.654 E26.52127
G1 X142.856 Y123.629 E26.52973
G1 X143.141 Y123.592 E26.53929
G1 X143.476 Y123.534 E26.55059
G1 X143.89 Y123.442 E26.5647
G1 X144.23 Y123.349 E26.57642
G1 X144.519 Y123.256 E26.58652
G1 X144.882 Y123.119 E26.59943
G1 X145.201 Y122.979 E26.61101
G1 X145.68 Y122.726 E26.62903
G1 X146.005 Y122.524 E26.64176
G1 X146.518 Y122.142 E26.66303
G1 X146.85 Y121.848 E26.67778
G1 X147.243 Y121.444 E26.69653
G1 X147.502 Y121.135 E26.70994
G1 X147.763 Y120.785 E26.72446
G1 X147.935 Y120.524 E26.73485
G1 X148.164 Y120.127 E26.7501
G1 X148.289 Y119.876 E26.75942
G1 X148.377 Y119.673 E26.76678
G1 X151.642 Y119.672 E26.87538
G1 X151.716 Y119.849 E26.88176
G1 X151.94 Y120.277 E26.89783
G1 X152.167 Y120.655 E26.91249
G1 X152.338 Y120.906 E26.92259
G1 X152.587 Y121.232 E26.93624
G1 X152.767 Y121.443 E26.94546
G1 X153.097 Y121.785 E26.96127
G1 X153.381 Y122.044 E26.97405
G1 X153.844 Y122.405 E26.99358
G1 X154.205 Y122.644 E27.00798
G1 X154.609 Y122.876 E27.02347
G1 X154.87 Y123.006 E27.03317
G1 X155.243 Y123.168 E27.0467
G1 X155.537 Y123.277 E27.05713
G1 X155.89 Y123.389 E27.06944
G1 X156.209 Y123.473 E27.08042
G1 X156.517 Y123.54 E27.0909
G1 X156.84 Y123.597 E27.10181
G1 X157.039 Y123.627 E27.1085
G1 X157.432 Y123.675 E27.12167
G1 X157.63 Y123.694 E27.12829
G1 X157.889 Y123.712 E27.13692
G1 X158.039 Y123.719 E27.14192
G1 X158.678 Y123.738 E27.16318
G1 X158.78 Y123.74 E27.16657
G1 X166.751 Y123.763 E27.43169
G1 X166.75 Y124.572 E27.4586
M204 S2000
G0 F7500 X167.149 Y124.972
M204 S500
G1 F1500 X132.86 Y124.972 E28.59905
G1 X132.859 Y123.357 E28.65277
G1 X141.861 Y123.294 E28.95218
G1 X142.048 Y123.287 E28.95841
G1 X142.578 Y123.254 E28.97607
G1 X142.805 Y123.233 E28.98365
G1 X143.09 Y123.196 E28.99321
G1 X143.39 Y123.143 E29.00334
G1 X143.804 Y123.051 E29.01745
G1 X144.108 Y122.969 E29.02792
G1 X144.397 Y122.876 E29.03802
G1 X144.721 Y122.752 E29.04956
G1 X145.04 Y122.612 E29.06114
G1 X145.469 Y122.387 E29.07726
G1 X145.794 Y122.185 E29.08998
G1 X146.253 Y121.842 E29.10904
G1 X146.585 Y121.548 E29.12379
G1 X146.937 Y121.187 E29.14056
G1 X147.196 Y120.878 E29.15397
G1 X147.429 Y120.565 E29.16695
G1 X147.601 Y120.304 E29.17735
G1 X147.805 Y119.949 E29.19096
G1 X147.93 Y119.698 E29.20029
G1 X148.07 Y119.377 E29.21194
G1 X148.109 Y119.273 E29.21563
G1 X151.907 Y119.272 E29.34195
G1 X152.071 Y119.664 E29.35609
G1 X152.295 Y120.092 E29.37215
G1 X152.497 Y120.429 E29.38522
G1 X152.668 Y120.68 E29.39532
G1 X152.891 Y120.973 E29.40757
G1 X153.071 Y121.184 E29.41679
G1 X153.367 Y121.489 E29.43093
G1 X153.651 Y121.748 E29.44372
G1 X154.065 Y122.071 E29.46118
G1 X154.426 Y122.31 E29.47558
G1 X154.787 Y122.518 E29.48944
G1 X155.048 Y122.648 E29.49914
G1 X155.382 Y122.793 E29.51125
G1 X155.676 Y122.902 E29.52167
G1 X155.992 Y123.002 E29.5327
G1 X156.311 Y123.086 E29.54367
G1 X156.586 Y123.146 E29.55303
G1 X156.909 Y123.203 E29.56394
G1 X157.088 Y123.23 E29.56996
G1 X157.481 Y123.278 E29.58313
G1 X157.657 Y123.295 E29.58901
G1 X157.916 Y123.313 E29.59765
G1 X158.051 Y123.319 E29.60214
G1 X158.69 Y123.338 E29.6234
G1 X158.781 Y123.34 E29.62643
G1 X167.152 Y123.364 E29.90485
G1 X167.149 Y124.972 E29.95834
M204 S2000
G0 F7500 X167.549 Y125.372
M204 S500
G1 F1500 X132.461 Y125.372 E31.12537
G1 X132.459 Y122.959 E31.20562
G1 X141.858 Y122.894 E31.51824
G1 X142.023 Y122.888 E31.52373
G1 X142.553 Y122.855 E31.5414
G1 X142.753 Y122.836 E31.54808
G1 X143.038 Y122.799 E31.55764
G1 X143.303 Y122.753 E31.56658
G1 X143.717 Y122.661 E31.58069
G1 X143.985 Y122.588 E31.58993
G1 X144.274 Y122.495 E31.60002
G1 X144.561 Y122.386 E31.61024
G1 X144.88 Y122.246 E31.62182
G1 X145.258 Y122.047 E31.63603
G1 X145.583 Y121.845 E31.64876
