;FLAVOR:Marlin
;TIME:673
;Filament used: 0.252307m
;Layer height: 0.2
;MINX:133.008
;MINY:133.2
;MINZ:0.2
;MAXX:166.992
;MAXY:166.8
;MAXZ:9
;TARGET_MACHINE.NAME:Creality Ender-3 S1 Plus
;Generated with Cura_SteamEngine 5.9.1
M82 ;absolute extrusion mode
; Ender 3 S1 Plus Start G-code
; M413 S0 ; Disable power loss recovery
G92 E0 ; Reset Extruder

; Prep surfaces before auto home for better accuracy
M140 S75
M104 S215

G28 ; Home all axes
G1 Z10.0 F3000 ; Move Z Axis up little to prevent scratching of Heat Bed
G1 X0 Y0

M190 S75
M109 S215

G1 X0.1 Y20 Z0.3 F5000.0 ; Move to start position
G1 X0.1 Y200.0 Z0.3 F1500.0 E15 ; Draw the first line
G1 X0.4 Y200.0 Z0.3 F5000.0 ; Move to side a little
G1 X0.4 Y20 Z0.3 F1500.0 E30 ; Draw the second line
G92 E0 ; Reset Extruder
G1 Z2.0 F3000 ; Move Z Axis up little to prevent scratching of Heat Bed
G1 X5 Y20 Z0.3 F5000.0 ; Move over to prevent blob squish

G92 E0
G92 E0
G1 F2400 E-0.8
;LAYER_COUNT:45
;LAYER:0
M107
M204 S2000
G0 F7500 X153.216 Y166.668 Z0.2
M204 S500
;TYPE:SKIRT
G1 F2400 E0
G1 F1500 X152.318 Y166.766 E0.03004
G1 X151.638 Y166.791 E0.05268
G1 X150.111 Y166.8 E0.10347
G1 X148.357 Y166.793 E0.1618
G1 X147.455 Y166.749 E0.19184
G1 X146.421 Y166.606 E0.22656
G1 X145.513 Y166.397 E0.25755
G1 X144.886 Y166.205 E0.27936
G1 X144.295 Y166.003 E0.30013
G1 X143.421 Y165.659 E0.33137
G1 X142.507 Y165.201 E0.36538
G1 X141.466 Y164.539 E0.40641
G1 X140.475 Y163.822 E0.44709
G1 X140.205 Y163.64 E0.45792
G1 X138.793 Y162.603 E0.51619
G1 X138.09 Y162.037 E0.54621
G1 X137.329 Y161.302 E0.5814
G1 X136.517 Y160.336 E0.62337
G1 X136.136 Y159.823 E0.64462
G1 X135.59 Y159.015 E0.67706
G1 X135.121 Y158.164 E0.70937
G1 X134.731 Y157.285 E0.74136
G1 X134.524 Y156.712 E0.76162
G1 X134.128 Y155.503 E0.80394
G1 X133.527 Y153.615 E0.86984
G1 X133.275 Y152.675 E0.9022
G1 X133.117 Y151.786 E0.93224
G1 X133.027 Y150.79 E0.9655
G1 X133.008 Y150.081 E0.98909
G1 X133.009 Y149.648 E1.00349
G1 X133.051 Y148.746 E1.03352
G1 X133.197 Y147.695 E1.06881
G1 X133.532 Y146.361 E1.11456
G1 X133.995 Y144.915 E1.16506
G1 X134.554 Y143.222 E1.22436
G1 X134.902 Y142.314 E1.2567
G1 X135.33 Y141.438 E1.28913
G1 X135.83 Y140.611 E1.32127
G1 X136.457 Y139.735 E1.3571
G1 X137.068 Y138.977 E1.38948
G1 X137.755 Y138.265 E1.42239
G1 X138.808 Y137.382 E1.4681
G1 X140.04 Y136.477 E1.51894
G1 X141.491 Y135.439 E1.57828
G1 X142.309 Y134.91 E1.61068
G1 X143.18 Y134.45 E1.64344
G1 X144.323 Y133.987 E1.68446
G1 X144.924 Y133.784 E1.70556
G1 X145.859 Y133.515 E1.73792
G1 X146.814 Y133.328 E1.77028
G1 X147.712 Y133.232 E1.80032
G1 X148.372 Y133.208 E1.82229
G1 X149.887 Y133.2 E1.87268
G1 X151.667 Y133.207 E1.93188
G1 X152.569 Y133.251 E1.96192
G1 X153.605 Y133.394 E1.9967
G1 X154.517 Y133.605 E2.02784
G1 X155.311 Y133.857 E2.05554
G1 X155.888 Y134.064 E2.07593
G1 X156.787 Y134.437 E2.1083
G1 X157.654 Y134.891 E2.14086
G1 X158.595 Y135.501 E2.17815
G1 X159.537 Y136.185 E2.21687
G1 X159.793 Y136.358 E2.22715
G1 X161.203 Y137.393 E2.28533
G1 X161.906 Y137.959 E2.31534
G1 X162.637 Y138.663 E2.3491
G1 X163.45 Y139.622 E2.39091
G1 X163.848 Y140.154 E2.41301
G1 X164.394 Y140.96 E2.44539
G1 X164.867 Y141.811 E2.47777
G1 X165.259 Y142.689 E2.50976
G1 X165.473 Y143.279 E2.53063
G1 X165.851 Y144.43 E2.57092
G1 X166.486 Y146.432 E2.64078
G1 X166.737 Y147.375 E2.67324
G1 X166.903 Y148.349 E2.7061
G1 X166.992 Y149.747 E2.75269
G1 X166.991 Y150.344 E2.77255
G1 X166.949 Y151.246 E2.80258
G1 X166.808 Y152.281 E2.83732
G1 X166.608 Y153.162 E2.86737
G1 X166.45 Y153.694 E2.88583
G1 X165.467 Y156.71 E2.99133
G1 X165.123 Y157.62 E3.02369
G1 X164.713 Y158.471 E3.05511
G1 X164.029 Y159.581 E3.09847
G1 X163.654 Y160.113 E3.12012
G1 X163.057 Y160.883 E3.15253
G1 X162.444 Y161.546 E3.18256
G1 X161.701 Y162.22 E3.21593
G1 X161.197 Y162.614 E3.2372
G1 X159.971 Y163.515 E3.28781
G1 X158.529 Y164.55 E3.34685
G1 X157.712 Y165.08 E3.37924
G1 X156.879 Y165.522 E3.4106
G1 X155.713 Y165.999 E3.4525
G1 X155.108 Y166.207 E3.47378
G1 X154.241 Y166.463 E3.50385
G1 X153.216 Y166.668 E3.53861
M204 S2000
G0 F7500 X153.173 Y166.27
M204 S500
G1 F1500 X152.275 Y166.368 E3.56866
G1 X151.63 Y166.392 E3.59013
G1 X150.113 Y166.4 E3.64058
G1 X148.376 Y166.393 E3.69836
G1 X147.474 Y166.349 E3.72839
G1 X146.51 Y166.216 E3.76076
G1 X145.63 Y166.014 E3.79079
G1 X145.015 Y165.826 E3.81218
G1 X144.441 Y165.63 E3.83235
G1 X143.6 Y165.301 E3.86239
G1 X142.722 Y164.863 E3.89502
G1 X141.681 Y164.201 E3.93605
G1 X140.71 Y163.498 E3.97593
G1 X140.442 Y163.318 E3.98666
G1 X139.044 Y162.291 E4.04436
G1 X138.341 Y161.725 E4.07438
G1 X137.635 Y161.045 E4.10698
G1 X136.838 Y160.097 E4.14817
G1 X136.467 Y159.599 E4.16883
G1 X135.94 Y158.821 E4.20008
G1 X135.486 Y158.001 E4.23126
G1 X135.107 Y157.149 E4.26227
G1 X134.904 Y156.587 E4.28215
G1 X134.509 Y155.382 E4.32432
G1 X133.913 Y153.511 E4.38963
G1 X133.669 Y152.605 E4.42084
G1 X133.511 Y151.716 E4.45087
G1 X133.427 Y150.779 E4.48216
G1 X133.408 Y150.082 E4.50535
G1 X133.409 Y149.667 E4.51916
G1 X133.451 Y148.765 E4.54919
G1 X133.585 Y147.792 E4.58186
G1 X133.913 Y146.483 E4.62674
G1 X134.375 Y145.04 E4.67713
G1 X134.928 Y143.365 E4.7358
G1 X135.262 Y142.489 E4.76698
G1 X135.673 Y141.644 E4.79824
G1 X136.155 Y140.844 E4.8293
G1 X136.769 Y139.985 E4.86442
G1 X137.356 Y139.254 E4.8956
G1 X138.012 Y138.571 E4.9271
G1 X139.045 Y137.704 E4.97195
G1 X140.273 Y136.802 E5.02263
G1 X141.709 Y135.774 E5.08137
G1 X142.496 Y135.263 E5.11258
G1 X143.33 Y134.821 E5.14397
G1 X144.451 Y134.366 E5.18421
G1 X145.035 Y134.168 E5.20472
G1 X145.936 Y133.907 E5.23592
G1 X146.857 Y133.726 E5.26714
G1 X147.755 Y133.63 E5.29718
G1 X148.374 Y133.608 E5.31778
G1 X149.885 Y133.6 E5.36804
G1 X151.648 Y133.607 E5.42667
G1 X152.55 Y133.651 E5.45671
G1 X153.515 Y133.784 E5.48911
G1 X154.427 Y133.995 E5.52024
G1 X155.176 Y134.233 E5.54638
G1 X155.735 Y134.434 E5.56614
G1 X156.602 Y134.792 E5.59734
G1 X157.437 Y135.227 E5.62865
G1 X158.36 Y135.825 E5.66523
G1 X159.302 Y136.509 E5.70395
G1 X159.556 Y136.68 E5.71414
G1 X160.952 Y137.705 E5.77174
G1 X161.655 Y138.271 E5.80176
G1 X162.332 Y138.922 E5.833
G1 X163.145 Y139.881 E5.87481
G1 X163.517 Y140.379 E5.89549
G1 X164.045 Y141.155 E5.92671
G1 X164.502 Y141.974 E5.9579
G1 X164.883 Y142.825 E5.98891
G1 X165.093 Y143.404 E6.0094
G1 X165.47 Y144.551 E6.04955
G1 X166.1 Y146.536 E6.11882
G1 X166.343 Y147.443 E6.15005
G1 X166.504 Y148.375 E6.18151
G1 X166.592 Y149.746 E6.2272
G1 X166.591 Y150.325 E6.24646
G1 X166.549 Y151.227 E6.27649
G1 X166.418 Y152.192 E6.30888
G1 X166.218 Y153.073 E6.33893
G1 X166.07 Y153.57 E6.35618
G1 X165.093 Y156.569 E6.46109
G1 X164.762 Y157.447 E6.49229
G1 X164.372 Y158.261 E6.52231
G1 X163.688 Y159.371 E6.56568
G1 X163.338 Y159.868 E6.5859
G1 X162.763 Y160.611 E6.61715
G1 X162.15 Y161.274 E6.64718
G1 X161.454 Y161.905 E6.67843
G1 X160.96 Y162.292 E6.6993
G1 X159.738 Y163.19 E6.74974
G1 X158.311 Y164.215 E6.80817
G1 X157.524 Y164.727 E6.8394
G1 X156.727 Y165.152 E6.86944
G1 X155.583 Y165.621 E6.91056
G1 X154.995 Y165.823 E6.93124
G1 X154.128 Y166.079 E6.96131
G1 X153.173 Y166.27 E6.9937
M204 S2000
G0 F7500 X153.13 Y165.872
M204 S500
G1 F1500 X152.232 Y165.97 E7.02375
G1 X151.628 Y165.992 E7.04385
G1 X150.115 Y166 E7.09417
G1 X148.395 Y165.993 E7.15138
G1 X147.493 Y165.949 E7.18142
G1 X146.599 Y165.826 E7.21143
G1 X145.719 Y165.624 E7.24146
G1 X145.144 Y165.447 E7.26147
G1 X144.587 Y165.257 E7.28105
G1 X143.746 Y164.928 E7.31108
G1 X142.937 Y164.525 E7.34114
G1 X141.896 Y163.863 E7.38218
G1 X140.945 Y163.174 E7.42124
G1 X140.679 Y162.996 E7.43188
G1 X139.295 Y161.979 E7.489
G1 X138.592 Y161.413 E7.51902
G1 X137.941 Y160.787 E7.54906
G1 X137.159 Y159.858 E7.58945
G1 X136.798 Y159.374 E7.60953
G1 X136.29 Y158.627 E7.63958
G1 X135.851 Y157.838 E7.66961
G1 X135.483 Y157.013 E7.69966
G1 X135.284 Y156.462 E7.71914
G1 X134.89 Y155.261 E7.76118
G1 X134.299 Y153.407 E7.8259
G1 X134.063 Y152.535 E7.85595
G1 X133.905 Y151.646 E7.88598
G1 X133.827 Y150.768 E7.9153
G1 X133.808 Y150.083 E7.93809
G1 X133.809 Y149.686 E7.95129
G1 X133.851 Y148.784 E7.98133
G1 X133.973 Y147.889 E8.01137
G1 X134.294 Y146.605 E8.05539
G1 X134.755 Y145.165 E8.10568
G1 X135.302 Y143.507 E8.16375
G1 X135.622 Y142.663 E8.19377
G1 X136.016 Y141.85 E8.22382
G1 X136.481 Y141.076 E8.25385
G1 X137.081 Y140.235 E8.28821
G1 X137.645 Y139.53 E8.31824
G1 X138.269 Y138.877 E8.34828
G1 X139.282 Y138.026 E8.39228
G1 X140.506 Y137.127 E8.4428
G1 X141.927 Y136.109 E8.50093
G1 X142.684 Y135.616 E8.53098
G1 X143.481 Y135.192 E8.56101
G1 X144.58 Y134.745 E8.60047
G1 X145.147 Y134.552 E8.62039
G1 X146.014 Y134.299 E8.65043
G1 X146.9 Y134.124 E8.68047
G1 X147.798 Y134.028 E8.7105
G1 X148.376 Y134.008 E8.72974
G1 X149.883 Y134 E8.77986
G1 X151.629 Y134.007 E8.83794
G1 X152.531 Y134.051 E8.86797
G1 X153.426 Y134.174 E8.89802
G1 X154.306 Y134.376 E8.92805
G1 X155.041 Y134.609 E8.9537
G1 X155.583 Y134.804 E8.97285
G1 X156.418 Y135.147 E9.00288
G1 X157.22 Y135.563 E9.03293
G1 X158.125 Y136.149 E9.06879
G1 X159.072 Y136.837 E9.10772
G1 X159.319 Y137.002 E9.1176
G1 X160.701 Y138.017 E9.17463
G1 X161.404 Y138.583 E9.20465
G1 X162.055 Y139.21 E9.23471
G1 X162.825 Y140.121 E9.27438
G1 X163.187 Y140.604 E9.29446
G1 X163.696 Y141.35 E9.3245
G1 X164.137 Y142.138 E9.35453
G1 X164.507 Y142.962 E9.38457
G1 X164.713 Y143.529 E9.40464
G1 X165.089 Y144.672 E9.44466
G1 X165.714 Y146.64 E9.51334
G1 X165.949 Y147.512 E9.54337
G1 X166.105 Y148.401 E9.57339
G1 X166.192 Y149.745 E9.61819
G1 X166.191 Y150.306 E9.63685
G1 X166.149 Y151.208 E9.66688
G1 X166.028 Y152.103 E9.69692
G1 X165.828 Y152.984 E9.72697
G1 X165.69 Y153.446 E9.743
G1 X164.719 Y156.428 E9.84731
G1 X164.401 Y157.274 E9.87737
G1 X164.011 Y158.088 E9.90739
G1 X163.361 Y159.141 E9.94855
G1 X163.021 Y159.624 E9.9682
G1 X162.469 Y160.339 E9.99824
G1 X161.856 Y161.002 E10.02827
G1 X161.186 Y161.608 E10.05832
G1 X160.723 Y161.97 E10.07787
G1 X159.505 Y162.865 E10.12814
G1 X158.092 Y163.88 E10.186
G1 X157.336 Y164.374 E10.21604
G1 X156.539 Y164.799 E10.24608
G1 X155.453 Y165.243 E10.2851
G1 X154.882 Y165.439 E10.30518
G1 X154.015 Y165.695 E10.33525
G1 X153.13 Y165.872 E10.36527
M204 S2000
G1 F2400 E9.56527
;MESH:%5B4_Small_gear_wheel_Z10.stl
G0 F7500 X152.011 Y156.294
G0 X151.621 Y155.028
M204 S500
;TYPE:WALL-INNER
G1 F2400 E10.36527
G1 F1714.3 X151.655 Y154.705 E10.37472
G1 F1562.5 X151.636 Y154.427 E10.38362
G1 F1321.6 X151.245 Y153.837 E10.41034
G1 F1435.4 X151.272 Y154.492 E10.43312
G1 F1719.2 X151.386 Y154.728 E10.44073
G1 F1714.3 X151.621 Y155.028 E10.45182
M204 S2000
G0 F7500 X151.245 Y153.837
M204 S500
G1 F1197.6 X151.182 Y153.645 E10.46024
M204 S2000
G0 F7500 X150.96 Y153.506
G0 X150 Y153.09
M204 S500
G1 F1500 X150.312 Y153.088 E10.47062
G1 X150.542 Y153.131 E10.4784
G1 X150.772 Y153.229 E10.48671
G1 F1428.6 X151.019 Y153.443 E10.49813
G1 F1260.5 X151.182 Y153.645 E10.5084
G1 F1234.6 X151.2 Y153.264 E10.52381
G1 F1401.9 X151.355 Y152.911 E10.53753
G1 F1500 X151.543 Y152.691 E10.54716
G1 F1488.8 X152.173 Y152.232 E10.57328
G1 X148.312 Y152.224 E10.70266
G1 X147.842 Y152.234 E10.71841
G1 X148.584 Y152.837 E10.75045
G1 F1500 X148.778 Y153.172 E10.76333
G1 X148.776 Y153.58 E10.7769
G1 X148.728 Y153.787 E10.78397
G1 F1595.7 X148.686 Y153.816 E10.78556
G1 F1709.4 X148.379 Y154.401 E10.80484
G1 F1704.5 X148.335 Y154.615 E10.81124
G1 X148.373 Y155 E10.82256
G1 X148.569 Y154.781 E10.83116
G1 X148.708 Y154.556 E10.8389
G1 X148.816 Y153.859 E10.85955
G1 F1595.7 X148.8 Y153.811 E10.86113
G1 F1500 X148.886 Y153.617 E10.86819
G1 X149.034 Y153.397 E10.87701
G1 X149.215 Y153.225 E10.88531
G1 X149.601 Y153.092 E10.89889
G1 X150 Y153.09 E10.91216
M204 S2000
G0 F7500 X151.041 Y153.216
G0 X152.214 Y152.222
M204 S500
G1 F1408.5 X152.37 Y152.17 E10.91799
M204 S2000
G0 F7500 X152.759 Y152.012
M204 S500
G1 F985.2 X153.085 Y152.234 E10.93796
G1 F1250 X153.259 Y152.364 E10.94663
M204 S2000
G0 F7500 X154.259 Y153.095
M204 S500
G1 F1714.3 X154.111 Y152.846 E10.95506
G1 X153.893 Y152.611 E10.96439
G1 F1445.8 X153.259 Y152.364 E10.98787
G1 X153.686 Y152.898 E11.01146
G1 F1714.3 X153.877 Y153.01 E11.0179
G1 X154.259 Y153.095 E11.02929
M204 S2000
G0 F7500 X153.068 Y151.94
G0 X152.946 Y151.535
G0 X153.224 Y150.362
M204 S500
G1 F1604.3 X153.446 Y150.184 E11.03814
G1 F1562.5 X153.882 Y149.99 E11.05338
G1 X153.482 Y149.828 E11.06716
G1 F1612.9 X153.229 Y149.634 E11.07702
G1 F1595.7 X153.224 Y150.362 E11.09978
M204 S2000
G0 F7500 X153.612 Y150.239
G0 X154.66 Y150.176
M204 S500
G1 F1729.1 X154.928 Y150.139 E11.10759
G1 X155.291 Y150.01 E11.1187
G1 X154.906 Y149.841 E11.13083
G1 F1562.5 X154.676 Y149.817 E11.13822
G1 F1310 X154.071 Y149.998 E11.16227
G1 F1421.8 X154.66 Y150.176 E11.18386
M204 S2000
G0 F7500 X153.462 Y149.689
G0 X153.254 Y149.435
G0 X152.831 Y148.424
M204 S500
G1 F1652.9 X152.858 Y148.242 E11.18941
G1 F1578.9 X152.994 Y147.925 E11.20031
G1 F1373 X153.157 Y147.713 E11.21003
G1 F1339.3 X152.777 Y147.824 E11.22477
G1 F1534.5 X152.348 Y147.791 E11.23876
G1 F1570.7 X152.154 Y147.724 E11.24528
G1 F1500 X151.533 Y147.301 E11.27027
G1 F1477.8 X151.257 Y146.941 E11.28559
G1 F1395.3 X151.176 Y146.336 E11.30741
G1 F1415.1 X150.938 Y146.644 E11.32113
G1 F1500 X150.631 Y146.831 E11.33309
G1 X150.423 Y146.904 E11.34042
G1 X149.648 Y146.908 E11.3662
G1 X149.354 Y146.834 E11.37628
G1 X149.127 Y146.696 E11.38512
G1 F1445.8 X148.936 Y146.507 E11.39439
G1 F1315.8 X148.796 Y146.302 E11.4038
G1 X148.811 Y146.541 E11.41288
G1 F1421.8 X148.727 Y146.954 E11.42767
G1 F1470.6 X148.527 Y147.226 E11.43913
G1 F1477.8 X147.895 Y147.716 E11.46612
G1 F1456.3 X147.775 Y147.766 E11.47058
G1 F1477.8 X152.137 Y147.772 E11.61783
G1 F1570.7 X152.49 Y147.927 E11.63008
G1 F1652.9 X152.831 Y148.424 E11.64827
M204 S2000
G0 F7500 X153.157 Y147.713
M204 S500
G1 F1255.2 X153.26 Y147.63 E11.65353
G1 F1442.3 X153.917 Y147.377 E11.67788
G1 F1704.5 X154.109 Y147.155 E11.68647
G1 F1709.4 X154.256 Y146.907 E11.69489
G1 X153.953 Y146.975 E11.70395
G1 X153.726 Y147.067 E11.7111
G1 F1442.3 X153.26 Y147.63 E11.73638
M204 S2000
G0 F7500 X152.348 Y147.672
G0 X151.649 Y147.197
G0 X151.443 Y146.948
G0 X151.192 Y146.316
M204 S500
G1 F1265.8 X151.236 Y146.175 E11.7422
G1 F1445.8 X151.618 Y145.59 E11.76631
G1 F1704.5 X151.666 Y145.378 E11.77267
G1 F1699.7 X151.627 Y144.99 E11.78412
G1 X151.421 Y145.227 E11.79333
G1 X151.287 Y145.442 E11.80077
G1 F1442.3 X151.236 Y146.175 E11.82619
M204 S2000
G0 F7500 X150.848 Y146.538
G0 X150.466 Y146.751
G0 X149.517 Y146.759
G0 X148.796 Y146.302
M204 S500
G1 F1234.6 X148.746 Y146.141 E11.833
G1 F1435.4 X148.726 Y145.504 E11.85515
G1 F1734.1 X148.613 Y145.267 E11.8627
G1 X148.374 Y144.963 E11.87383
G1 X148.342 Y145.289 E11.88325
G1 F1570.7 X148.363 Y145.569 E11.89217
G1 F1321.6 X148.746 Y146.141 E11.91816
M204 S2000
G0 F7500 X148.584 Y146.915
G0 X148.362 Y147.189
G0 X147.78 Y147.611
G0 X146.876 Y147.732
M204 S500
G1 F1276.6 X146.748 Y147.638 E11.92437
G1 F1456.3 X146.31 Y147.096 E11.94824
G1 F1719.2 X146.12 Y146.986 E11.95461
G1 X145.737 Y146.901 E11.96599
G1 X145.883 Y147.149 E11.97435
G1 X146.105 Y147.384 E11.98373
G1 F1456.3 X146.748 Y147.638 E12.00741
M204 S2000
G0 F7500 X147.193 Y148.315
M204 S500
G1 F1578.9 X147.333 Y148.179 E12.01358
G1 X147.525 Y147.912 E12.02397
G1 F1449.3 X147.679 Y147.801 E12.03051
G1 F1421.8 X147.41 Y147.835 E12.04002
G1 F1405.2 X146.89 Y147.754 E12.0587
G1 F1435.4 X147.02 Y147.95 E12.06688
G1 F1515.2 X147.193 Y148.315 E12.08018
M204 S2000
G0 F7500 X146.791 Y149.423
G0 X146.15 Y149.989
M204 S500
G1 F1247.4 X145.984 Y149.998 E12.08683
M204 S2000
G0 F7500 X145.299 Y150.177
M204 S500
