;FLAVOR:Marlin
;TIME:6330
;Filament used: 4.40351m
;Layer height: 0.2
;MINX:93.503
;MINY:117.808
;MINZ:0.2
;MAXX:204.212
;MAXY:179.712
;MAXZ:21.2
;TARGET_MACHINE.NAME:Creality Ender-3 S1 Plus
;Generated with Cura_SteamEngine 5.9.1
M82 ;absolute extrusion mode
; Ender 3 S1 Plus Start G-code
; M413 S0 ; Disable power loss recovery
G92 E0 ; Reset Extruder

; Prep surfaces before auto home for better accuracy
M140 S75
M104 S215

G28 ; Home all axes
G1 Z10.0 F3000 ; Move Z Axis up little to prevent scratching of Heat Bed
G1 X0 Y0

M190 S75
M109 S215

G1 X0.1 Y20 Z0.3 F5000.0 ; Move to start position
G1 X0.1 Y200.0 Z0.3 F1500.0 E15 ; Draw the first line
G1 X0.4 Y200.0 Z0.3 F5000.0 ; Move to side a little
G1 X0.4 Y20 Z0.3 F1500.0 E30 ; Draw the second line
G92 E0 ; Reset Extruder
G1 Z2.0 F3000 ; Move Z Axis up little to prevent scratching of Heat Bed
G1 X5 Y20 Z0.3 F5000.0 ; Move over to prevent blob squish

G92 E0
G92 E0
G1 F2400 E-0.8
;LAYER_COUNT:106
;LAYER:0
M107
M204 S2000
G0 F7500 X192.464 Y179.572 Z0.2
M204 S500
;TYPE:SKIRT
G1 F2400 E0
G1 F1500 X191.538 Y179.676 E0.03099
G1 X190.939 Y179.699 E0.05093
G1 X190.049 Y179.712 E0.08053
G1 X109.762 Y179.71 E2.75089
G1 X109.001 Y179.697 E2.77621
G1 X107.734 Y179.598 E2.81847
G1 X107.088 Y179.507 E2.84017
G1 X106.132 Y179.325 E2.87254
G1 X105.205 Y179.064 E2.90457
G1 X104.547 Y178.823 E2.92788
G1 X104.027 Y178.613 E2.94653
G1 X103.412 Y178.345 E2.96884
G1 X102.524 Y177.895 E3.00195
G1 X101.697 Y177.379 E3.03438
G1 X100.949 Y176.816 E3.06551
G1 X100.309 Y176.245 E3.09404
G1 X99.682 Y175.642 E3.12297
G1 X99.013 Y174.935 E3.15535
G1 X98.415 Y174.18 E3.18738
G1 X98.041 Y173.628 E3.20956
G1 X97.758 Y173.179 E3.22721
G1 X97.271 Y172.323 E3.25997
G1 X96.768 Y171.184 E3.30138
G1 X96.539 Y170.565 E3.32333
G1 X96.244 Y169.633 E3.35585
G1 X96.03 Y168.664 E3.38885
G1 X95.948 Y168.174 E3.40538
G1 X95.824 Y167.124 E3.44054
G1 X95.786 Y166.576 E3.45881
G1 X95.563 Y163.909 E3.54783
G1 X95.37 Y162.102 E3.60827
G1 X95.312 Y161.21 E3.638
G1 X95.25 Y158.537 E3.72693
G1 X95.121 Y155.928 E3.81381
G1 X94.928 Y153.447 E3.89658
G1 X94.662 Y150.943 E3.98033
G1 X94.331 Y148.497 E4.06243
G1 X93.855 Y145.622 E4.15935
G1 X93.696 Y144.75 E4.18883
G1 X93.564 Y143.765 E4.22189
G1 X93.529 Y143.247 E4.23915
G1 X93.511 Y142.66 E4.25869
G1 X93.503 Y141.445 E4.2991
G1 X93.511 Y140.752 E4.32215
G1 X93.568 Y139.768 E4.35493
G1 X93.765 Y138.536 E4.39643
G1 X93.904 Y137.916 E4.41756
G1 X94.197 Y136.865 E4.45385
G1 X94.521 Y135.896 E4.48783
G1 X94.782 Y135.151 E4.51409
G1 X95.546 Y132.769 E4.59729
G1 X96.299 Y130.174 E4.68716
G1 X96.488 Y129.59 E4.70758
G1 X96.695 Y129.006 E4.72818
G1 X97.035 Y128.169 E4.75823
G1 X97.627 Y127.043 E4.80054
G1 X97.897 Y126.596 E4.81791
G1 X98.439 Y125.786 E4.85033
G1 X99.042 Y125.035 E4.88236
G1 X99.497 Y124.547 E4.90455
G1 X100.11 Y123.931 E4.93346
G1 X100.801 Y123.296 E4.96467
G1 X101.603 Y122.682 E4.99827
G1 X102.432 Y122.158 E5.03088
G1 X103.438 Y121.649 E5.06838
G1 X104.226 Y121.304 E5.09699
G1 X105.136 Y120.957 E5.12939
G1 X106.037 Y120.7 E5.16055
G1 X106.895 Y120.53 E5.18964
G1 X107.553 Y120.427 E5.21179
G1 X108.48 Y120.323 E5.24282
G1 X109.075 Y120.299 E5.26262
G1 X109.941 Y120.288 E5.29143
G1 X123.475 Y120.288 E5.74157
G1 X126.059 Y120.251 E5.82753
G1 X128.627 Y120.142 E5.91301
G1 X131.101 Y119.967 E5.99551
G1 X133.573 Y119.722 E6.07813
G1 X136.136 Y119.394 E6.16407
G1 X138.599 Y119.007 E6.24699
G1 X141.086 Y118.545 E6.33113
G1 X143.355 Y118.061 E6.40829
G1 X144.245 Y117.912 E6.43831
G1 X145.369 Y117.829 E6.47579
G1 X146.349 Y117.808 E6.50839
G1 X147.418 Y117.816 E6.54395
G1 X148.389 Y117.87 E6.5763
G1 X149.26 Y117.993 E6.60555
G1 X149.792 Y118.096 E6.62358
G1 X152.27 Y118.618 E6.7078
G1 X154.737 Y119.068 E6.79121
G1 X157.257 Y119.451 E6.87599
G1 X159.741 Y119.759 E6.95924
G1 X162.242 Y119.997 E7.0428
G1 X164.745 Y120.163 E7.12623
G1 X167.288 Y120.262 E7.21088
G1 X169.473 Y120.288 E7.28355
G1 X190.285 Y120.289 E7.97576
G1 X190.954 Y120.3 E7.99802
G1 X192.18 Y120.391 E8.03891
G1 X192.777 Y120.471 E8.05894
G1 X193.751 Y120.65 E8.09188
G1 X195.042 Y121.032 E8.13666
G1 X195.715 Y121.279 E8.1605
G1 X196.58 Y121.644 E8.19173
G1 X197.458 Y122.109 E8.22477
G1 X197.936 Y122.392 E8.24325
G1 X198.75 Y122.925 E8.27561
G1 X199.461 Y123.482 E8.30565
G1 X200.219 Y124.195 E8.34026
G1 X200.775 Y124.813 E8.36791
G1 X201.083 Y125.183 E8.38392
G1 X201.559 Y125.802 E8.4099
G1 X201.866 Y126.23 E8.42741
G1 X202.376 Y127.019 E8.45866
G1 X202.832 Y127.881 E8.4911
G1 X203.233 Y128.84 E8.52567
G1 X203.492 Y129.553 E8.5509
G1 X203.763 Y130.414 E8.58092
G1 X204.008 Y131.571 E8.62026
G1 X204.067 Y131.945 E8.63285
G1 X204.169 Y132.869 E8.66377
G1 X204.192 Y133.42 E8.68211
G1 X204.207 Y134.561 E8.72006
G1 X204.177 Y136.526 E8.78543
G1 X204.179 Y139.163 E8.87314
G1 X204.211 Y140.696 E8.92413
G1 X204.212 Y165.827 E9.75999
G1 X204.2 Y166.533 E9.78348
G1 X204.144 Y167.464 E9.8145
G1 X204.062 Y168.088 E9.83543
G1 X203.987 Y168.55 E9.851
G1 X203.786 Y169.503 E9.88339
G1 X203.503 Y170.433 E9.91573
G1 X203.303 Y170.994 E9.93554
G1 X202.931 Y171.904 E9.96823
G1 X202.383 Y172.941 E10.00725
G1 X202.104 Y173.403 E10.0252
G1 X201.562 Y174.213 E10.05761
G1 X200.959 Y174.964 E10.08965
G1 X200.504 Y175.452 E10.11184
G1 X199.89 Y176.069 E10.14079
G1 X199.199 Y176.704 E10.172
G1 X198.397 Y177.318 E10.2056
G1 X197.568 Y177.842 E10.23821
G1 X196.562 Y178.351 E10.27571
G1 X195.774 Y178.696 E10.30432
G1 X194.864 Y179.043 E10.33672
G1 X193.964 Y179.3 E10.36785
G1 X193.118 Y179.469 E10.39654
G1 X192.464 Y179.572 E10.41856
M204 S2000
G0 F7500 X192.419 Y179.174
M204 S500
G1 F1500 X191.493 Y179.278 E10.44955
G1 X190.929 Y179.3 E10.46833
G1 X190.049 Y179.312 E10.4976
G1 X109.769 Y179.31 E13.16772
G1 X109.032 Y179.298 E13.19224
G1 X107.765 Y179.199 E13.23451
G1 X107.162 Y179.114 E13.25476
G1 X106.24 Y178.94 E13.28597
G1 X105.342 Y178.688 E13.31699
G1 X104.697 Y178.452 E13.33983
G1 X104.187 Y178.246 E13.35813
G1 X103.572 Y177.978 E13.38044
G1 X102.735 Y177.555 E13.41163
G1 X101.938 Y177.059 E13.44286
G1 X101.19 Y176.496 E13.47399
G1 X100.586 Y175.957 E13.50092
G1 X99.972 Y175.367 E13.52924
G1 X99.326 Y174.686 E13.56046
G1 X98.746 Y173.955 E13.5915
G1 X98.379 Y173.414 E13.61324
G1 X98.105 Y172.981 E13.63028
G1 X97.637 Y172.161 E13.66169
G1 X97.134 Y171.022 E13.7031
G1 X96.92 Y170.444 E13.7236
G1 X96.635 Y169.547 E13.7549
G1 X96.421 Y168.578 E13.78791
G1 X96.345 Y168.127 E13.80312
G1 X96.223 Y167.096 E13.83765
G1 X96.185 Y166.548 E13.85592
G1 X95.962 Y163.876 E13.9451
G1 X95.769 Y162.076 E14.00531
G1 X95.712 Y161.201 E14.03448
G1 X95.65 Y158.517 E14.12377
G1 X95.521 Y155.908 E14.21065
G1 X95.327 Y153.416 E14.29379
G1 X95.06 Y150.901 E14.37791
G1 X94.726 Y148.432 E14.46077
G1 X94.25 Y145.557 E14.5577
G1 X94.09 Y144.678 E14.58741
G1 X93.963 Y143.738 E14.61896
G1 X93.929 Y143.235 E14.63573
G1 X93.911 Y142.657 E14.65496
G1 X93.903 Y141.449 E14.69514
G1 X93.91 Y140.774 E14.7176
G1 X93.963 Y139.831 E14.74901
G1 X94.16 Y138.599 E14.79051
G1 X94.289 Y138.023 E14.81014
G1 X94.576 Y136.992 E14.84573
G1 X94.899 Y136.028 E14.87955
G1 X95.16 Y135.283 E14.9058
G1 X95.927 Y132.891 E14.98935
G1 X96.68 Y130.297 E15.07919
G1 X96.865 Y129.724 E15.09922
G1 X97.066 Y129.157 E15.11923
G1 X97.406 Y128.32 E15.14927
G1 X97.969 Y127.25 E15.18949
G1 X98.23 Y126.818 E15.20627
G1 X98.751 Y126.036 E15.23753
G1 X99.334 Y125.308 E15.26855
G1 X99.781 Y124.829 E15.29034
G1 X100.381 Y124.226 E15.31863
G1 X101.072 Y123.591 E15.34985
G1 X101.817 Y123.02 E15.38107
G1 X102.613 Y122.515 E15.41242
G1 X103.619 Y122.006 E15.44992
G1 X104.369 Y121.678 E15.47714
G1 X105.246 Y121.342 E15.50838
G1 X106.147 Y121.085 E15.53954
G1 X106.957 Y120.925 E15.567
G1 X107.598 Y120.825 E15.58858
G1 X108.525 Y120.721 E15.61961
G1 X109.08 Y120.699 E15.63808
G1 X109.946 Y120.688 E15.66689
G1 X123.481 Y120.688 E16.11706
G1 X126.076 Y120.651 E16.20338
G1 X128.644 Y120.542 E16.28887
G1 X131.132 Y120.366 E16.37183
G1 X133.624 Y120.119 E16.45512
G1 X136.187 Y119.791 E16.54106
G1 X138.661 Y119.402 E16.62436
G1 X141.164 Y118.937 E16.70903
G1 X143.421 Y118.456 E16.78579
G1 X144.311 Y118.307 E16.8158
G1 X145.378 Y118.229 E16.85138
G1 X146.346 Y118.208 E16.88359
G1 X147.396 Y118.215 E16.91851
G1 X148.333 Y118.266 E16.94972
G1 X149.184 Y118.386 E16.9783
G1 X149.709 Y118.487 E16.99609
G1 X152.198 Y119.012 E17.08069
G1 X154.665 Y119.461 E17.16409
G1 X157.208 Y119.848 E17.24965
G1 X159.69 Y120.156 E17.33283
G1 X162.215 Y120.396 E17.41719
G1 X164.729 Y120.563 E17.50099
G1 X167.272 Y120.662 E17.58564
G1 X169.468 Y120.688 E17.65868
G1 X190.279 Y120.689 E18.35086
G1 X190.924 Y120.699 E18.37231
G1 X192.127 Y120.788 E18.41244
G1 X192.706 Y120.865 E18.43186
G1 X193.638 Y121.034 E18.46337
G1 X194.929 Y121.416 E18.50815
G1 X195.559 Y121.648 E18.53047
G1 X196.424 Y122.013 E18.5617
G1 X197.254 Y122.453 E18.59295
G1 X197.717 Y122.727 E18.61084
G1 X198.503 Y123.24 E18.64206
G1 X199.214 Y123.797 E18.6721
G1 X199.922 Y124.463 E18.70443
G1 X200.468 Y125.069 E18.73156
G1 X200.766 Y125.427 E18.74705
G1 X201.234 Y126.035 E18.77257
G1 X201.53 Y126.448 E18.78947
G1 X202.022 Y127.206 E18.81953
G1 X202.478 Y128.068 E18.85196
G1 X202.857 Y128.976 E18.88469
G1 X203.11 Y129.673 E18.90935
G1 X203.381 Y130.534 E18.93937
G1 X203.613 Y131.633 E18.97673
G1 X203.669 Y131.989 E18.98872
G1 X203.771 Y132.913 E19.01963
G1 X203.792 Y133.425 E19.03668
G1 X203.807 Y134.555 E19.07427
G1 X203.777 Y136.52 E19.13963
G1 X203.779 Y139.163 E19.22754
G1 X203.811 Y140.696 E19.27853
G1 X203.812 Y165.821 E20.1142
G1 X203.801 Y166.509 E20.13708
G1 X203.745 Y167.44 E20.1681
G1 X203.667 Y168.024 E20.1877
G1 X203.595 Y168.468 E20.20266
G1 X203.403 Y169.387 E20.23389
G1 X203.126 Y170.299 E20.26559
G1 X202.933 Y170.843 E20.28479
G1 X202.577 Y171.717 E20.31617
G1 X202.029 Y172.754 E20.35518
G1 X201.771 Y173.181 E20.37178
G1 X201.25 Y173.963 E20.40303
G1 X200.667 Y174.691 E20.43405
G1 X200.22 Y175.17 E20.45584
G1 X199.619 Y175.774 E20.48418
G1 X198.928 Y176.409 E20.5154
G1 X198.183 Y176.98 E20.54662
G1 X197.387 Y177.485 E20.57797
G1 X196.381 Y177.994 E20.61547
G1 X195.631 Y178.322 E20.64269
G1 X194.754 Y178.658 E20.67393
G1 X193.854 Y178.915 E20.70506
G1 X193.056 Y179.074 E20.73212
G1 X192.419 Y179.174 E20.75357
M204 S2000
G0 F7500 X192.993 Y178.679
M204 S500
G1 F1500 X192.374 Y178.777 E20.77442
G1 X191.477 Y178.878 E20.80444
G1 X190.919 Y178.901 E20.82301
G1 X190.049 Y178.912 E20.85195
G1 X109.775 Y178.91 E23.52188
G1 X109.063 Y178.899 E23.54556
G1 X107.796 Y178.8 E23.58783
G1 X107.236 Y178.721 E23.60664
G1 X106.348 Y178.555 E23.63669
G1 X105.479 Y178.312 E23.6667
G1 X104.847 Y178.081 E23.68908
G1 X104.346 Y177.879 E23.70704
G1 X103.752 Y177.621 E23.72858
G1 X102.946 Y177.215 E23.7586
G1 X102.178 Y176.739 E23.78865
G1 X101.456 Y176.197 E23.81868
G1 X100.863 Y175.669 E23.84509
G1 X100.262 Y175.091 E23.87282
G1 X99.639 Y174.437 E23.90286
G1 X99.077 Y173.73 E23.9329
G1 X98.717 Y173.2 E23.95421
G1 X98.452 Y172.782 E23.97067
G1 X98.003 Y171.999 E24.0007
G1 X97.5 Y170.86 E24.04211
G1 X97.301 Y170.322 E24.06119
G1 X97.026 Y169.461 E24.09125
G1 X96.812 Y168.492 E24.12425
G1 X96.742 Y168.08 E24.13815
G1 X96.622 Y167.069 E24.17202
G1 X96.584 Y166.515 E24.19049
G1 X96.361 Y163.843 E24.27967
G1 X96.168 Y162.05 E24.33965
G1 X96.112 Y161.192 E24.36824
G1 X96.05 Y158.497 E24.4579
G1 X95.921 Y155.888 E24.54479
G1 X95.726 Y153.385 E24.62829
G1 X95.457 Y150.859 E24.71278
G1 X95.121 Y148.367 E24.79641
G1 X94.645 Y145.492 E24.89334
G1 X94.484 Y144.606 E24.92329
G1 X94.362 Y143.711 E24.95333
G1 X94.329 Y143.222 E24.96963
G1 X94.311 Y142.654 E24.98853
G1 X94.303 Y141.453 E25.02848
G1 X94.309 Y140.796 E25.05033
G1 X94.358 Y139.894 E25.08038
G1 X94.555 Y138.662 E25.12187
G1 X94.674 Y138.13 E25.14001
G1 X94.955 Y137.119 E25.17491
G1 X95.276 Y136.16 E25.20854
G1 X95.541 Y135.405 E25.23516
G1 X96.308 Y133.013 E25.3187
G1 X97.061 Y130.42 E25.40851
G1 X97.242 Y129.858 E25.42815
G1 X97.437 Y129.308 E25.44756
G1 X97.777 Y128.471 E25.4776
G1 X98.312 Y127.456 E25.51577
G1 X98.563 Y127.039 E25.53195
G1 X99.063 Y126.286 E25.56202
G1 X99.627 Y125.581 E25.59205
G1 X100.065 Y125.111 E25.61341
G1 X100.652 Y124.52 E25.64112
G1 X101.316 Y123.908 E25.67115
G1 X102.032 Y123.357 E25.7012
G1 X102.794 Y122.872 E25.73125
G1 X103.8 Y122.363 E25.76874
G1 X104.513 Y122.051 E25.79463
G1 X105.356 Y121.726 E25.82468
G1 X106.224 Y121.477 E25.85471
G1 X107.019 Y121.32 E25.88167
G1 X107.643 Y121.222 E25.90268
G1 X108.541 Y121.121 E25.93273
G1 X109.085 Y121.099 E25.95084
G1 X109.951 Y121.088 E25.97964
G1 X123.487 Y121.088 E26.42985
G1 X126.093 Y121.051 E26.51654
G1 X128.661 Y120.942 E26.60203
G1 X131.163 Y120.765 E26.68545
G1 X133.675 Y120.516 E26.76941
G1 X136.238 Y120.188 E26.85535
G1 X138.723 Y119.797 E26.93902
G1 X141.242 Y119.329 E27.02424
G1 X143.487 Y118.851 E27.10058
G1 X144.377 Y118.702 E27.13059
G1 X145.387 Y118.629 E27.16427
G1 X146.344 Y118.608 E27.19611
G1 X147.375 Y118.614 E27.2304
G1 X148.277 Y118.662 E27.26045
G1 X149.109 Y118.779 E27.28839
G1 X149.626 Y118.878 E27.3059
G1 X152.127 Y119.406 E27.39092
G1 X154.594 Y119.854 E27.47431
G1 X157.159 Y120.245 E27.56061
G1 X159.639 Y120.553 E27.64373
G1 X162.188 Y120.795 E27.72889
G1 X164.713 Y120.963 E27.81306
G1 X167.256 Y121.062 E27.8977
G1 X169.463 Y121.088 E27.97111
G1 X190.273 Y121.089 E28.66325
G1 X190.894 Y121.098 E28.68391
G1 X192.097 Y121.187 E28.72403
G1 X192.636 Y121.259 E28.74212
G1 X193.525 Y121.418 E28.77216
G1 X194.816 Y121.8 E28.81693
G1 X195.404 Y122.017 E28.83778
G1 X196.237 Y122.367 E28.86783
G1 X197.051 Y122.798 E28.89847
G1 X197.499 Y123.062 E28.91576
G1 X198.256 Y123.555 E28.94581
G1 X198.967 Y124.112 E28.97585
G1 X199.625 Y124.731 E29.0059
G1 X200.161 Y125.325 E29.03251
G1 X200.449 Y125.671 E29.04748
G1 X200.909 Y126.267 E29.07252
G1 X201.194 Y126.666 E29.08883
G1 X201.686 Y127.424 E29.11889
G1 X202.109 Y128.222 E29.14893
G1 X202.481 Y129.113 E29.18104
G1 X202.728 Y129.793 E29.2051
G1 X202.999 Y130.654 E29.23513
G1 X203.218 Y131.695 E29.27051
G1 X203.271 Y132.033 E29.28189
G1 X203.371 Y132.93 E29.31191
G1 X203.392 Y133.43 E29.32855
G1 X203.407 Y134.549 E29.36577
G1 X203.377 Y136.514 E29.43114
G1 X203.379 Y139.163 E29.51924
G1 X203.411 Y140.696 E29.57024
G1 X203.412 Y165.815 E30.4057
G1 X203.402 Y166.485 E30.42799
G1 X203.348 Y167.387 E30.45804
G1 X203.272 Y167.96 E30.47727
G1 X203.203 Y168.387 E30.49165
G1 X203.02 Y169.271 E30.52168
G1 X202.749 Y170.165 E30.55275
G1 X202.562 Y170.693 E30.57138
G1 X202.223 Y171.53 E30.60142
G1 X201.686 Y172.548 E30.6397
G1 X201.438 Y172.96 E30.65569
G1 X200.938 Y173.713 E30.68575
G1 X200.374 Y174.418 E30.71578
G1 X199.936 Y174.888 E30.73715
G1 X199.348 Y175.48 E30.7649
G1 X198.684 Y176.092 E30.79494
G1 X197.968 Y176.643 E30.82499
G1 X197.206 Y177.128 E30.85503
G1 X196.2 Y177.637 E30.89253
G1 X195.487 Y177.949 E30.91841
G1 X194.644 Y178.274 E30.94846
G1 X193.776 Y178.523 E30.9785
G1 X192.993 Y178.679 E31.00505
M204 S2000
G1 F2400 E30.20505
G0 F7500 X108.73 Y168.987
G0 X107.96 Y168.732
G0 X107.356 Y168.276
G0 X106.814 Y167.627
G0 X106.509 Y166.788
G0 X106.118 Y143.526
M204 S500
G1 F2400 E31.00505
G1 F1500 X105.957 Y143.374 E31.01242
G1 X105.739 Y143.086 E31.02443
G1 X105.508 Y142.568 E31.04329
G1 X105.501 Y140.982 E31.09605
G1 X105.575 Y140.655 E31.1072
G1 X105.754 Y140.236 E31.12235
G1 X106.002 Y139.93 E31.13545
G1 X106.118 Y139.808 E31.14105
G1 X106.118 Y143.526 E31.26471
M204 S2000
G0 F7500 X106.518 Y144.333
M204 S500
G1 F1500 X106.391 Y144.213 E31.27052
G1 X106.334 Y144.165 E31.273
G1 X106.112 Y144.002 E31.28216
G1 X106.083 Y143.982 E31.28333
G1 X105.881 Y143.851 E31.29134
G1 X105.658 Y143.642 E31.30151
G1 X105.393 Y143.291 E31.31613
G1 X105.108 Y142.653 E31.33938
G1 X105.1 Y140.938 E31.39642
G1 X105.193 Y140.531 E31.4103
G1 X105.408 Y140.027 E31.42853
G1 X105.697 Y139.671 E31.44378
G1 X105.927 Y139.428 E31.45491
G1 X105.953 Y139.399 E31.4562
G1 X106.005 Y139.336 E31.45892
G1 X106.285 Y139.136 E31.47036
G1 X106.33 Y139.1 E31.47228
G1 X106.518 Y138.936 E31.48058
G1 X106.518 Y144.333 E31.66008
M204 S2000
G0 F7500 X106.918 Y145.775
M204 S500
G1 F1500 X106.887 Y145.622 E31.66528
